!!!COM: Beethoven, Ludwig van
!!!CDT: 1770///-1827///
!!!ODT: 1798///-1800///
!!!OTL: String Quartet No. 5 in A Major, Op. 18, No. 5
!!!OPS: Op. 18
!!!ONM: No. 5
!!!OMV: Mvmt. 4
!!!OMD: Allegro
!!!PDT: 1801///
!!!PPP: Vienna
!!!PPR: C. Haslinger qm Tobias
!!!ODE: Dem F&uuml;rsten von Lobkowitz gewidmet
!!!MPD: 1798///-1800///
**kern	**dynam	**kern	**dynam	**kern	**dynam	**kern	**dynam
*staff4	*staff4	*staff3	*staff3	*staff2	*staff2	*staff1	*staff1
*Icello	*Icello	*Iviola	*Iviola	*Ivioln	*Ivioln	*Ivioln	*Ivioln
*>[A,A1,A,A2,B]	*>[A,A1,A,A2,B]	*>[A,A1,A,A2,B]	*>[A,A1,A,A2,B]	*>[A,A1,A,A2,B]	*>[A,A1,A,A2,B]	*>[A,A1,A,A2,B]	*>[A,A1,A,A2,B]
*>norep[A,A2,B]	*>norep[A,A2,B]	*>norep[A,A2,B]	*>norep[A,A2,B]	*>norep[A,A2,B]	*>norep[A,A2,B]	*>norep[A,A2,B]	*>norep[A,A2,B]
*>A	*>A	*>A	*>A	*>A	*>A	*>A	*>A
*clefF4	*clefF4	*clefC3	*clefC3	*clefG2	*clefG2	*clefG2	*clefG2
*k[f#c#g#]	*k[f#c#g#]	*k[f#c#g#]	*k[f#c#g#]	*k[f#c#g#]	*k[f#c#g#]	*k[f#c#g#]	*k[f#c#g#]
*A:	*A:	*A:	*A:	*A:	*A:	*A:	*A:
*M2/2	*M2/2	*M2/2	*M2/2	*M2/2	*M2/2	*M2/2	*M2/2
*MM208	*MM208	*MM208	*MM208	*MM208	*MM208	*MM208	*MM208
8r	.	8e\L	p	8r	.	8r	.
4r	.	8f#\	.	4r	.	4r	.
.	.	8e\J	.	.	.	.	.
=1	=1	=1	=1	=1	=1	=1	=1
8r	.	[1c#	.	1r	.	2r	.
8E\L	p	.	.	.	.	.	.
8F#\	.	.	.	.	.	.	.
8E\J	.	.	.	.	.	.	.
[2A\	.	.	.	.	.	8r	.
.	.	.	.	.	.	8ee\L	p
.	.	.	.	.	.	8ff#\	.
.	.	.	.	.	.	8ee\J	.
=2	=2	=2	=2	=2	=2	=2	=2
4A\]	.	2c#\]	.	8r	.	[2aa\	.
.	.	.	.	8e/L	p	.	.
(4E\	.	.	.	8f#/	.	.	.
.	.	.	.	8e/J	.	.	.
4C#/	.	4e\	.	4a/	.	8aa\L]	.
.	.	.	.	.	.	8ccc#\	.
4AA/)	.	4c#\	.	4cc#\	.	8bb\	.
.	.	.	.	.	.	8aa\J	.
=3	=3	=3	=3	=3	=3	=3	=3
(2EE/	.	4.B/	.	4.dd\	.	8aa\L	.
.	.	.	.	.	.	8gg#\	.
.	.	.	.	.	.	8ff#\	.
.	.	8d\	.	8b\	.	8gg#\J	.
2AA/)	.	4.A/	.	4.cc#\	.	8aa\L	.
.	.	.	.	.	.	8ccc#\	.
.	.	.	.	.	.	8bb\	.
.	.	8c#\	.	8a/	.	8aa\J	.
=4	=4	=4	=4	=4	=4	=4	=4
(2EE/	.	4.B/	.	4.dd\	.	8aa\L	.
.	.	.	.	.	.	8gg#\	.
.	.	.	.	.	.	8ff#\	.
.	.	8d\	.	8b\	.	8gg#\J	.
2AA/)	.	4.A/	.	4.cc#\	.	8aa\L	.
.	.	.	.	.	.	8ccc#\	.
.	.	.	.	.	.	8bb\	.
.	.	8c#\	.	8a/	.	8aa\J	.
=5	=5	=5	=5	=5	=5	=5	=5
4EE/	.	4B/	.	4g#/	.	8aa\L	.
.	.	.	.	.	.	8gg#\	.
4E\	.	4B/	.	4g#/	.	8ff#\	.
.	.	.	.	.	.	8ee\J	.
4BB/	.	4B/	.	4a/	.	8dd#\L	.
.	.	.	.	.	.	8ee\	.
4BB/	.	4B/	.	4a/	.	8ff#\	.
.	.	.	.	.	.	8gg#\J	.
=6	=6	=6	=6	=6	=6	=6	=6
[2E\	.	[2B/	.	[2g#/	.	[2ee\	.
8E\]	.	8B/]	.	8g#/]	.	8ee\]	.
8r	.	8r	.	8r	.	8bb\L	.
4r	.	4r	.	4r	.	8aa#\	.
.	.	.	.	.	.	8bb\J	.
=7	=7	=7	=7	=7	=7	=7	=7
1r	.	2r	.	8r	.	[1dd	.
.	.	.	.	8b/L	.	.	.
.	.	.	.	8a#/	.	.	.
.	.	.	.	8b/J	.	.	.
.	.	8r	.	[2d/	.	.	.
.	.	8B/L	.	.	.	.	.
.	.	8A#/	.	.	.	.	.
.	.	8B/J	.	.	.	.	.
=8	=8	=8	=8	=8	=8	=8	=8
8r	.	2E/	.	4d/]	.	2dd\_	.
8BB/L	.	.	.	.	.	.	.
8AA#/	.	.	.	4G#/	.	.	.
8BB/J	.	.	.	.	.	.	.
(2EE/	.	4G#/	.	4B/	.	8dd\L]	.
.	.	.	.	.	.	8ff#\	.
.	.	4B/	.	4d/	.	8ee\	.
.	.	.	.	.	.	8dd\J	.
=9	=9	=9	=9	=9	=9	=9	=9
2AA/	.	4.A/	.	4.c#/	.	8dd\L	.
.	.	.	.	.	.	8cc#\	.
.	.	.	.	.	.	8b\	.
.	.	8E/	.	8e/	.	8a\J	.
2E\	.	4.B/	.	4.d/	.	8g#/L	.
.	.	.	.	.	.	8a/	.
.	.	.	.	.	.	8b/	.
.	.	8E/	.	8e/	.	8cc#/J	.
=10	=10	=10	=10	=10	=10	=10	=10
2AA/	.	4.A/	.	4.c#/	.	8a\L	.
.	.	.	.	.	.	8cc#\	.
.	.	.	.	.	.	8ee\	.
.	.	8E/	.	8e/	.	8ee\J	.
2EE/)	.	4.G#/	.	4.B/	.	8ee\L	.
.	.	.	.	.	.	8ff#\	.
.	.	.	.	.	.	8ee\	.
.	.	8E/	.	8e/	.	8dd\J	.
=11	=11	=11	=11	=11	=11	=11	=11
(2AA/	.	4.A/	.	4.c#/	.	8dd\L	.
.	.	.	.	.	.	8cc#\	.
.	.	.	.	.	.	8b\	.
.	.	8E/	.	8e/	.	8a\J	.
2E\)	.	4.B/	.	4.d/	.	8g#/L	.
.	.	.	.	.	.	8a/	.
.	.	.	.	.	.	8b/	.
.	.	8E/	.	8e/	.	8cc#/J	.
=12	=12	=12	=12	=12	=12	=12	=12
4AA/	.	8E/L	.	2.c#/	.	2.a/	.
.	.	8e/	.	.	.	.	.
4r	.	8f#/	.	.	.	.	.
.	.	8e/J	.	.	.	.	.
2r	.	2ee\	.	.	.	.	.
.	.	.	.	4g#/	.	4b\	.
=13	=13	=13	=13	=13	=13	=13	=13
1r	.	1r	.	4a/	.	4cc#\	.
.	.	.	.	4g#/	.	4b\	.
.	.	.	.	4b\	.	4dd\	.
.	.	.	.	4a/	.	4cc#\	.
=14	=14	=14	=14	=14	=14	=14	=14
8r	.	1r	.	2.g#/	.	2.b\	.
8E\L	.	.	.	.	.	.	.
8F#\	.	.	.	.	.	.	.
8E\J	.	.	.	.	.	.	.
2e\	.	.	.	.	.	.	.
.	.	.	.	4a#/	.	4cc#\	.
=15	=15	=15	=15	=15	=15	=15	=15
1r	.	1r	.	4b\	.	4dd\	.
.	.	.	.	4a#/	.	4cc#\	.
.	.	.	.	4cc#\	.	4ee\	.
.	.	.	.	4b\	.	4dd\	.
=16	=16	=16	=16	=16	=16	=16	=16
(2.A\	.	2.C#/	.	8a/	.	4cc#\	.
.	.	.	.	8e/L	.	.	.
.	.	.	.	8f#/	.	4r	.
.	.	.	.	8e/J	.	.	.
.	.	.	.	2ee\	.	2r	.
4B\	.	4E/	.	.	.	.	.
=17	=17	=17	=17	=17	=17	=17	=17
4c#\	.	4A/	.	1r	.	8r	.
.	.	.	.	.	.	8ee\L	.
4B\	.	4G#/	.	.	.	8ff#\	.
.	.	.	.	.	.	8ee\J	.
4d\	.	4B/	.	.	.	2eee\	.
4c#\)	.	4A/	.	.	.	.	.
=18	=18	=18	=18	=18	=18	=18	=18
(2.B\	.	2.E/	.	8r	.	1r	.
.	.	.	.	8e/L	.	.	.
.	.	.	.	8f#/	.	.	.
.	.	.	.	8e/J	.	.	.
.	.	.	.	2ee\	.	.	.
4c#\	.	4A/	.	.	.	.	.
=19	=19	=19	=19	=19	=19	=19	=19
4d\	.	4B/	.	1r	.	8r	.
.	.	.	.	.	.	8ee\L	.
4c#\	.	4A#/	.	.	.	8ff#\	.
.	.	.	.	.	.	8ee\J	.
4e\	.	4c#\	.	.	.	2eee\	.
4d\)	.	4B/	.	.	.	.	.
=20	=20	=20	=20	=20	=20	=20	=20
4c#\	.	4A/	.	8r	.	2r	.
.	.	.	.	8cc#\L	.	.	.
4r	.	4r	.	8dd\	.	.	.
.	.	.	.	8cc#\J	.	.	.
2r	.	8r	.	[2ff#\	.	8r	.
.	.	8a\L	.	.	.	8ccc#\L	.
.	.	8b\	.	.	.	8ddd\	.
.	.	8a\J	.	.	.	8ccc#\J	.
=21	=21	=21	=21	=21	=21	=21	=21
2r	.	4g#\	.	2ff#\]	.	8bb\L	.
.	.	.	.	.	.	8bb\	.
.	.	4r	.	.	.	8ccc#\	.
.	.	.	.	.	.	8ddd#\J	.
8r	.	2r	.	[2ee\	.	8eee\L	.
8G#\L	.	.	.	.	.	8ddd#\	.
8A\	.	.	.	.	.	8ccc#\	.
8G#\J	.	.	.	.	.	8bb\J	.
=22	=22	=22	=22	=22	=22	=22	=22
4F#\	.	2r	.	8ee\]	.	[2aa\	.
.	.	.	.	8ee\L	.	.	.
4r	.	.	.	8ff#\	.	.	.
.	.	.	.	8ee\J	.	.	.
2r	.	8r	.	[2dd#\	.	8aa\L]	.
.	.	8f#\L	.	.	.	8aa\	.
.	.	8g#\	.	.	.	8bb\	.
.	.	8f#\J	.	.	.	8aa\J	.
=23	=23	=23	=23	=23	=23	=23	=23
2r	.	4e\	.	2dd#\]	.	8gg#\L	.
.	.	.	.	.	.	8gg#\	.
.	.	4r	.	.	.	8aa\	.
.	.	.	.	.	.	8bb\J	.
8r	.	2r	.	[2cc#\	.	8ccc#\L	.
8E\L	.	.	.	.	.	8bb\	.
8F#\	.	.	.	.	.	8aa\	.
8E\J	.	.	.	.	.	8gg#\J	.
=24	=24	=24	=24	=24	=24	=24	=24
4D#\	.	2r	.	8cc#\L]	.	[2ff#\	.
.	.	.	.	8cc#\	.	.	.
4r	.	.	.	8dd#\	.	.	.
.	.	.	.	8cc#\J	.	.	.
2r	.	8r	.	[2b\	.	8ff#\L]	.
.	.	8d#\L	.	.	.	8ff#\	.
.	.	8e\	.	.	.	8gg#\	.
.	.	8d#\J	.	.	.	8ff#\J	.
=25	=25	=25	=25	=25	=25	=25	=25
2r	.	4c#\	.	8b\L]	.	[2ee\	.
.	.	.	.	8b\	.	.	.
.	.	4r	.	8cc#\	.	.	.
.	.	.	.	8b\J	.	.	.
8r	.	2r	.	2a#/	.	8ee\L]	.
8C#/L	.	.	.	.	.	8ee\	.
8D#/	.	.	.	.	.	8ff#\	.
8C#/J	.	.	.	.	.	8ee\J	.
=26	=26	=26	=26	=26	=26	=26	=26
4BB/	.	1r	.	8b\L	.	4dd#\	.
.	.	.	.	8b\	.	.	.
(2BB/	.	.	.	8cc#\	.	4r	.
.	.	.	.	8b\J	.	.	.
.	.	.	.	8a#/L	.	[2ff#\	.
.	.	.	.	8a/	.	.	.
8C#/L	.	.	.	8b/	.	.	.
8D#/J)	.	.	.	8a/J	.	.	.
=27	=27	=27	=27	=27	=27	=27	=27
4E\	.	1r	.	8g#/L	.	2ff#\]	.
.	.	.	.	8g#/	.	.	.
4F#\	.	.	.	8a/	.	.	.
.	.	.	.	8g#/J	.	.	.
4Gn\	.	.	.	8gn/L	.	2ee\	.
.	.	.	.	8gn/	.	.	.
4E\	.	.	.	8a/	.	.	.
.	.	.	.	8gn/J	.	.	.
=28	=28	=28	=28	=28	=28	=28	=28
4B\	.	4B/	.	4f#/	.	8dd#\L	.
.	.	.	.	.	.	8bb\	.
4r	.	2B/	.	4r	.	8ccc#\	.
.	.	.	.	.	.	8bb\J	.
2r	.	.	.	[2ff#\	.	8aa#\L	.
.	.	.	.	.	.	8aa\	.
.	.	8c#\L	.	.	.	8bb\	.
.	.	8d#\J	.	.	.	8aa\J	.
=29	=29	=29	=29	=29	=29	=29	=29
1r	.	4e\	.	2ff#\]	.	8gg#\L	.
.	.	.	.	.	.	8gg#\	.
.	.	4f#\	.	.	.	8aa\	.
.	.	.	.	.	.	8gg#\J	.
.	.	4gn\	.	2ee\	.	8ggn\L	.
.	.	.	.	.	.	8ggn\	.
.	.	4e\	.	.	.	8aa\	.
.	.	.	.	.	.	8ggn\J	.
=30	=30	=30	=30	=30	=30	=30	=30
4r	.	4b\	.	8dd#\L	.	4ff#\	.
.	.	.	.	8b\	.	.	.
(2BB/	.	4r	.	8cc#\	.	4r	.
.	.	.	.	8b\J	.	.	.
.	.	2r	.	8a#/L	.	[2ff#\	.
.	.	.	.	8a/	.	.	.
8C#/L	.	.	.	8b/	.	.	.
8D#/J)	.	.	.	8a/J	.	.	.
=31	=31	=31	=31	=31	=31	=31	=31
4E\	.	1r	.	8g#/L	.	2ff#\]	.
.	.	.	.	8g#/	.	.	.
4F#\	.	.	.	8a/	.	.	.
.	.	.	.	8g#/J	.	.	.
4Gn\	.	.	.	8gn/L	.	2ee\	.
.	.	.	.	8gn/	.	.	.
4E\	.	.	.	8a/	.	.	.
.	.	.	.	8gn/J	.	.	.
=32	=32	=32	=32	=32	=32	=32	=32
4B\	.	4r	.	4f#/	<	8dd#\L	<
.	.	.	.	.	.	8bb\	<
(2BB/	<	2B/	<	4r	<	8ccc#\	.
.	.	.	.	.	.	8bb\J	.
.	.	.	.	[2ff#\	.	8aa#\L	.
.	.	.	.	.	.	8aa\	.
8C#/L	<	8c#\L	<	.	.	8bb\	.
8D#/J)	.	8d#\J	.	.	.	8aa\J	.
=33	=33	=33	=33	=33	=33	=33	=33
4E\	.	4e\	.	2ff#\]	.	8gg#\L	.
.	.	.	.	.	.	8gg#\	.
4F#\	.	4f#\	.	.	.	8aa\	.
.	.	.	.	.	.	8gg#\J	.
4Gn\	.	4gn\	.	2ee\	.	8ggn\L	.
.	.	.	.	.	.	8ggn\	.
4E\	.	4e\	.	.	.	8aa\	.
.	.	.	.	.	.	8ggn\J	.
=34	=34	=34	=34	=34	=34	=34	=34
4B\	f	4b\	f	8dd#\L	f	8ff#\L	f
.	.	.	.	8dd#\	.	8ff#\	.
4E\	.	4e\	.	8ff#\	.	8aa\	.
.	.	.	.	8ee\J	.	8ggn\J	.
4B\	.	4b\	.	8dd#\L	.	8ff#\L	.
.	.	.	.	8dd#\	.	8ff#\	.
4E\	.	4e\	.	8ff#\	.	8aa\	.
.	.	.	.	8ee\J	.	8ggn\J	.
=35	=35	=35	=35	=35	=35	=35	=35
4B\	.	4b\	.	4dd#\	.	4ff#\	.
4r	.	4r	.	4r	.	4r	.
2r	.	2r	.	2r	.	2r	.
=36	=36	=36	=36	=36	=36	=36	=36
(1E	pp	1B	pp	1r	.	1g#	pp
=37	=37	=37	=37	=37	=37	=37	=37
1AA#	.	1Gn	.	1e	pp	1cc#	.
=38	=38	=38	=38	=38	=38	=38	=38
1AA	.	1cn	.	1d#	.	1f#	.
=39	=39	=39	=39	=39	=39	=39	=39
1GG#)	.	1Fn	.	1d	.	1b	.
=40	=40	=40	=40	=40	=40	=40	=40
(2GGn/	<	2B-/	<	2c#/	<	2e/	<
[2FF#/	<	[2A/	<	2d/	<	(2a/	<
=41	=41	=41	=41	=41	=41	=41	=41
2FF#/]	.	2A/]	.	2d#/	.	2a/)	.
2EE/)	.	2B/	.	2e/	.	[2g#/	.
=42	=42	=42	=42	=42	=42	=42	=42
2AA/	p	2A/	p	2c#/	p	4g#/]	p
.	.	.	.	.	.	2f#/	.
2AA#/	.	2F#/	.	2c#/	.	.	.
.	.	.	.	.	.	[4e/	.
=43	=43	=43	=43	=43	=43	=43	=43
4BB/	.	4F#/	.	4B/	.	4e/]	.
4r	.	4r	.	4r	.	4d#/	.
2r	.	2r	.	2r	.	4f#/	.
.	.	.	.	.	.	4b\	.
=44	=44	=44	=44	=44	=44	=44	=44
1r	.	4ee\	p	4gg#\	p	1gg#	p
.	.	4dd#\	.	4ff#\	.	.	.
.	.	4cc#\	.	4ee\	.	.	.
.	.	4b\	.	4dd#\	.	.	.
=45	=45	=45	=45	=45	=45	=45	=45
1r	.	4a\	.	4cc#\	.	1ccc#	.
.	.	4g#\	.	4b\	.	.	.
.	.	4f#\	.	4a/	.	.	.
.	.	4e\	.	4g#/	.	.	.
=46	=46	=46	=46	=46	=46	=46	=46
(4d#\	.	4f#\	.	1f#	.	1ff#	.
4c#\	.	4e\	.	.	.	.	.
4B\	.	4d#\	.	.	.	.	.
4A\	.	4c#\	.	.	.	.	.
=47	=47	=47	=47	=47	=47	=47	=47
4G#\	.	4B/	.	1b	.	1bb	.
4F#\	.	4A/	.	.	.	.	.
4E\	.	4G#/	.	.	.	.	.
4D#\	.	4F#/	.	.	.	.	.
=48	=48	=48	=48	=48	=48	=48	=48
4C#/)	.	4E/	.	4e/	.	2ee\	<
(4C#/	<	2c#\	<	4r	.	.	.
4F#\	<	.	.	2r	.	[2aa\	<
4E\	.	4cn\	<	.	.	.	.
=49	=49	=49	=49	=49	=49	=49	=49
4D#\	.	2.B/	.	4r	.	2aa\]	.
4BB/	.	.	.	2f#/	<	.	.
4E\	.	.	.	.	.	[2gg#\	.
4GG#/)	.	4B/	.	4e/	<	.	.
=50	=50	=50	=50	=50	=50	=50	=50
(4AA/	p	4A/	p	4c#/	p	4gg#\]	p
4FF#/	.	4a\	.	4cc#\	.	4ff#\	.
4BB/)	.	4g#\	.	4b\	.	4ee\	.
4BB/	.	4f#\	.	4a/	.	4dd#\	.
=51	=51	=51	=51	=51	=51	=51	=51
4EE/	.	4e\	.	4g#/	.	4ee\	.
[2.B\	.	4r	.	4r	.	4r	.
.	.	4G#/	.	4b\	.	2r	.
.	.	4F#/	.	4a/	.	.	.
=52	=52	=52	=52	=52	=52	=52	=52
2B\]	.	4E/	.	4g#/	.	2r	.
.	.	4D#/	.	4f#/	.	.	.
(4BB/	.	4A/	.	4d#/	.	4cc#\	.
4C#/	.	4G#/	.	4e/	.	4b\	.
=53	=53	=53	=53	=53	=53	=53	=53
4D#\	.	4F#/	.	4f#/	.	4a/	.
4E\)	.	4E/	.	4g#/	.	4g#/	.
[2B\	.	4G#/	.	4b\	.	2r	.
.	.	4F#/	.	4a/	.	.	.
=54	=54	=54	=54	=54	=54	=54	=54
2B\]	.	4E/	.	4g#/	.	2r	.
.	.	4D#/	.	4f#/	.	.	.
(4BB/	.	4A/	.	4d#/	.	4cc#\	.
4C#/	.	4G#/	.	4e/	.	4b\	.
=55	=55	=55	=55	=55	=55	=55	=55
4D#\	.	4F#/	.	4f#/	.	4a/	.
4E\)	.	4E/	.	4g#/	.	4g#/	.
(4C#/	.	4B/	.	4e#/	.	4dd\	.
4D#\	.	4A/	.	4f#/	.	4cc#\	.
=56	=56	=56	=56	=56	=56	=56	=56
4E#\	.	4G#/	.	4g#/	.	4b\	.
4F#\)	.	4F#/	.	4a/	.	4a/	.
(4E\	<	4d\	<	4g#/	<	4ff#\	<
4F#\	<	4c#\	<	4a/	<	4ee\	<
=57	=57	=57	=57	=57	=57	=57	=57
4G#\	.	4B/	.	4b\	.	4dd\	.
4A\	.	4A/	.	4e/	.	4cc#\	.
4B\	.	4e\	.	4g#/	.	4b\	.
4c#\)	.	4e\	.	4e/	.	[4a/	.
=58	=58	=58	=58	=58	=58	=58	=58
4B\	.	4d#\	.	4f#/	.	4a/]	.
4r	.	4e\	.	4B/	.	2g#/	.
4BB/	.	4B/	.	4e/	.	.	.
4r	.	4B/	.	4d#/	.	4f#/	.
=59	=59	=59	=59	=59	=59	=59	=59
4e\	p	1r	.	2r	.	4g#/	p
4d#\	.	.	.	.	.	4f#/	.
4c#\	.	.	.	4e/	p	4a/	.
4B\	.	.	.	4e/	.	4g#/	.
=60	=60	=60	=60	=60	=60	=60	=60
4A\	.	2r	.	4e/	.	4cc#\	.
4G#\	.	.	.	4e/	.	4b\	.
4F#\	.	4B/	p	4a/	.	4dd#\	.
4E\	.	4B/	.	4g#/	.	4ee\	.
=61	=61	=61	=61	=61	=61	=61	=61
1D#	.	[1B	.	1f#	.	[2aa\	.
.	.	.	.	.	.	8aa\L]	.
.	.	.	.	.	.	8ff#\	.
.	.	.	.	.	.	8dd#\	.
.	.	.	.	.	.	8a\J	.
=62	=62	=62	=62	=62	=62	=62	=62
4E\	.	4B/]	.	4B/	.	8g#/L	.
.	.	.	.	.	.	8b/	.
4AA/	.	4r	.	4c#/	.	8a/	.
.	.	.	.	.	.	8f#/J	.
4BB/	.	2r	.	4G#/	.	8e/L	.
.	.	.	.	.	.	8g#/	.
4BB/	.	.	.	4A/	.	8f#/	.
.	.	.	.	.	.	8d#/J	.
=63	=63	=63	=63	=63	=63	=63	=63
2r	.	4e\	.	4g#/	.	2r	.
.	.	4d#\	.	4f#/	.	.	.
4c#\	p	4e\	.	4a/	.	4aa\	p
4B\	.	4e\	.	4g#/	.	4gg#\	.
=64	=64	=64	=64	=64	=64	=64	=64
4A\	.	4e\	.	4cc#\	.	4ccc#\	.
4G#\	.	4e\	.	4b\	.	4bb\	.
4F#\	.	4B/	.	4a/	.	4ddd#\	.
4E\	.	4B/	.	4g#/	.	4eee\	.
=65	=65	=65	=65	=65	=65	=65	=65
4D#\	f	4B#/	f	4a/	f	[1fff#	f
4r	.	4r	.	4r	.	.	.
2r	.	2r	.	2r	.	.	.
=66	=66	=66	=66	=66	=66	=66	=66
1r	.	1r	.	1r	.	4fff#\]	.
.	.	.	.	.	.	4eee\	>
.	.	.	.	.	.	4ddd#\	.
.	.	.	.	.	.	4ccc#\	.
=67	=67	=67	=67	=67	=67	=67	=67
(2G#\	pp	4a\	pp	4ff#\	pp	4bb#\	pp
.	.	4f#\	.	4dd#\	.	4ddd#\	.
2c#\	.	4e\	.	4cc#\	.	4eee\	.
.	.	4g#\	.	[4ee\	.	4ccc#\	.
=68	=68	=68	=68	=68	=68	=68	=68
2F#\	.	4gn\	.	4ee\]	.	4aa#\	.
.	.	4e\	.	4cc#\	.	4ccc#\	.
2B\	.	4d\	.	4b\	.	4ddd\	.
.	.	4f#\	.	[4dd\	.	4bb\	.
=69	=69	=69	=69	=69	=69	=69	=69
2E\	.	4fn\	.	4dd\]	.	4gg#\	.
.	.	4d\	.	4b\	.	4bb\	.
2A\	.	4c#\	.	4a/	.	4ccc#\	.
.	.	[4e\	.	4cc#\	.	4aa\	.
=70	=70	=70	=70	=70	=70	=70	=70
2B\	.	4e\]	.	4g#/	.	4gg#\	.
.	.	4B/	.	4b\	.	4bb\	.
2BB/)	.	4d#\	.	4a/	.	4ff#\	.
.	.	4B/	.	4b\	.	4bb\	.
=71	=71	=71	=71	=71	=71	=71	=71
4E\	p	4B/	p	4g#/	p	8e/L	p
.	.	.	.	.	.	8g#/	.
4r	.	4r	.	4r	.	8b/	.
.	.	.	.	.	.	8g#/J	.
2r	.	2r	.	2r	.	8ee\L	.
.	.	.	.	.	.	8b\	.
.	.	.	.	.	.	8gg#\	.
.	.	.	.	.	.	8ee\J	.
=72	=72	=72	=72	=72	=72	=72	=72
4r	.	4r	.	4r	.	2.bb\	.
4G#\	.	4B/	.	4d/	.	.	.
4G#\	.	4B/	.	4d/	.	.	.
4G#\	.	4B/	.	4d/	.	4e#/	.
=73	=73	=73	=73	=73	=73	=73	=73
4A\	.	4A/	.	4c#/	.	4f#/	.
4r	.	4r	.	4r	.	8a\L	.
.	.	.	.	.	.	8cc#\J	.
2r	.	2r	.	2r	.	8ff#\L	.
.	.	.	.	.	.	8gg#\	.
.	.	.	.	.	.	8aa\	.
.	.	.	.	.	.	8bb\J	.
=74	=74	=74	=74	=74	=74	=74	=74
4r	.	4r	.	4r	.	2.ccc#\	.
4B\	.	4f#\	.	4a/	.	.	.
4B\	.	4f#\	.	4a/	.	.	.
4B\	.	4f#\	.	4a/	.	4dd#\	.
=75	=75	=75	=75	=75	=75	=75	=75
4E\	.	4e\	.	4g#/	.	8e/L	.
.	.	.	.	.	.	8g#/	.
4r	.	4r	.	4r	.	8b/	.
.	.	.	.	.	.	8g#/J	.
2r	.	2r	.	2r	.	8ee\L	.
.	.	.	.	.	.	8b\	.
.	.	.	.	.	.	8gg#\	.
.	.	.	.	.	.	8ee\J	.
=76	=76	=76	=76	=76	=76	=76	=76
4r	.	4r	.	4r	.	2.bb\	.
4GG#/	.	4B/	.	4dd\	.	.	.
4GG#/	.	4B/	.	4dd\	.	.	.
4GG#/	.	4B/	.	4dd\	.	4e#/	.
=77	=77	=77	=77	=77	=77	=77	=77
4AA/	.	4A/	.	4cc#\	.	4f#/	.
4r	.	4r	.	4r	.	8a\L	.
.	.	.	.	.	.	8cc#\J	.
2r	.	2r	.	2r	.	8ff#\L	.
.	.	.	.	.	.	8gg#\	.
.	.	.	.	.	.	8aa\	.
.	.	.	.	.	.	8bb\J	.
=78	=78	=78	=78	=78	=78	=78	=78
4r	.	4r	.	4r	.	2.ccc#\	.
4BB/	.	4F#/	.	4a/	.	.	.
4BB/	.	4F#/	.	4a/	.	.	.
4BB/	.	4F#/	.	4a/	.	4dd#\	.
=79	=79	=79	=79	=79	=79	=79	=79
4E\	.	8E/L	.	4g#/	.	4ee\	.
.	.	8G#/	.	.	.	.	.
4r	.	8B/	.	4r	.	4r	.
.	.	8e/J	.	.	.	.	.
2r	.	8g#\L	.	2r	.	2r	.
.	.	8e\	.	.	.	.	.
.	.	8g#\	.	.	.	.	.
.	.	8e\J	.	.	.	.	.
=80	=80	=80	=80	=80	=80	=80	=80
1r	.	[1b	.	4r	.	4r	.
.	.	.	.	4d#/	.	8aa\L	.
.	.	.	.	.	.	8ff#\J	.
.	.	.	.	4d#/	.	8aa\L	.
.	.	.	.	.	.	8ff#\	.
.	.	.	.	4d#/	.	8aa\	.
.	.	.	.	.	.	8ff#\J	.
=81	=81	=81	=81	=81	=81	=81	=81
1r	.	4b\]	.	8e/L	.	4gg#\	.
.	.	.	.	8g#/	.	.	.
.	.	4r	.	8b/	.	4r	.
.	.	.	.	8ee/J	.	.	.
.	.	2r	.	8gg#\L	.	2r	.
.	.	.	.	8ee\	.	.	.
.	.	.	.	8b\	.	.	.
.	.	.	.	8g#\J	.	.	.
=82	=82	=82	=82	=82	=82	=82	=82
4r	.	1r	.	1a	.	4r	.
4BB/	.	.	.	.	.	8ff#\L	.
.	.	.	.	.	.	8dd#\J	.
4BB/	.	.	.	.	.	8ff#\L	.
.	.	.	.	.	.	8dd#\	.
4BB/	.	.	.	.	.	8ff#\	.
.	.	.	.	.	.	8dd#\J	.
=83	=83	=83	=83	=83	=83	=83	=83
4E\	.	8E/L	.	4g#/	.	4ee\	.
.	.	8G#/	.	.	.	.	.
4r	.	8B/	.	4r	.	4r	.
.	.	8e/J	.	.	.	.	.
2r	.	8g#\L	.	2r	.	2r	.
.	.	8e\	.	.	.	.	.
.	.	8g#\	.	.	.	.	.
.	.	8e\J	.	.	.	.	.
=84	=84	=84	=84	=84	=84	=84	=84
1r	.	[1b	.	4r	.	4r	.
.	.	.	.	4d#/	.	8a/L	.
.	.	.	.	.	.	8f#/J	.
.	.	.	.	4d#/	.	8a/L	.
.	.	.	.	.	.	8f#/	.
.	.	.	.	4d#/	.	8a/	.
.	.	.	.	.	.	8f#/J	.
=85	=85	=85	=85	=85	=85	=85	=85
1r	.	4b\]	.	8e/L	.	4g#/	.
.	.	.	.	8g#/	.	.	.
.	.	4r	.	8b/	.	4r	.
.	.	.	.	8ee/J	.	.	.
.	.	2r	.	8gg#\L	.	2r	.
.	.	.	.	8ee\	.	.	.
.	.	.	.	8b\	.	.	.
.	.	.	.	8g#\J	.	.	.
=86	=86	=86	=86	=86	=86	=86	=86
4r	.	1r	.	1a	.	4r	.
4BB/	.	.	.	.	.	8ff#\L	.
.	.	.	.	.	.	8dd#\J	.
4BB/	.	.	.	.	.	8ff#\L	.
.	.	.	.	.	.	8dd#\	.
4BB/	.	.	.	.	.	8ff#\	.
.	.	.	.	.	.	8dd#\J	.
=87	=87	=87	=87	=87	=87	=87	=87
4E\	.	4r	.	4g#/	.	4ee\	.
4r	.	8B/L	.	4r	.	4r	.
.	.	8A#/J	.	.	.	.	.
2r	.	8B/L	.	2r	.	2r	.
.	.	8A#/	.	.	.	.	.
.	.	8B/	.	.	.	.	.
.	.	8A#/J	.	.	.	.	.
=88	=88	=88	=88	=88	=88	=88	=88
(1BB	.	[1B	.	4r	.	4r	.
.	.	.	.	8a/L	.	8ff#\L	.
.	.	.	.	8f#/J	.	8dd#\J	.
.	.	.	.	8a/L	.	8ff#\L	.
.	.	.	.	8f#/	.	8dd#\	.
.	.	.	.	8a/	.	8ff#\	.
.	.	.	.	8f#/J	.	8dd#\J	.
=89	=89	=89	=89	=89	=89	=89	=89
4E\)	.	4B/]	.	4g#/	.	4ee\	.
4r	.	8B/L	.	4r	.	4r	.
.	.	8A#/J	.	.	.	.	.
2r	.	8B/L	.	2r	.	2r	.
.	.	8A#/	.	.	.	.	.
.	.	8B/	.	.	.	.	.
.	.	8A#/J	.	.	.	.	.
=90	=90	=90	=90	=90	=90	=90	=90
(1BB	.	[1B	.	4r	.	4r	.
.	.	.	.	8a/L	.	8ff#\L	.
.	.	.	.	8f#/J	.	8dd#\J	.
.	.	.	.	8a/L	.	8ff#\L	.
.	.	.	.	8f#/	.	8dd#\	.
.	.	.	.	8a/	.	8ff#\	.
.	.	.	.	8f#/J	.	8dd#\J	.
=91	=91	=91	=91	=91	=91	=91	=91
4E\)	<	2B/]	<	2g#/	<	1ee	<
(8EE/L	<	.	.	.	.	.	.
8DD#/J	.	.	.	.	.	.	.
8EE/L	.	[2E/	<	[2G#/	<	.	.
8DD#/	.	.	.	.	.	.	.
8EE/	.	.	.	.	.	.	.
8DD#/J	.	.	.	.	.	.	.
=92	=92	=92	=92	=92	=92	=92	=92
8EE/L	.	2E/]	.	2G#/]	.	2dd\	<
8DD#/	.	.	.	.	.	.	.
8EE/	.	.	.	.	.	.	.
8DD#/J	.	.	.	.	.	.	.
8EE/L	.	2G#/	.	2B/	.	2b\	.
8DD#/	.	.	.	.	.	.	.
8EE/	.	.	.	.	.	.	.
8DD#/J)	.	.	.	.	.	.	.
=93	=93	=93	=93	=93	=93	=93	=93
*>A1	*>A1	*>A1	*>A1	*>A1	*>A1	*>A1	*>A1
[1EE	p	[1B	p	[1d	p	[1g#	p
=94	=94	=94	=94	=94	=94	=94	=94
2EE/_	.	2B/_	.	2d/_	.	2g#/_	.
8EE/]	.	8B/]	.	8d/]	.	8g#/]	.
=95:|!	=95:|!	=95:|!	=95:|!	=95:|!	=95:|!	=95:|!	=95:|!
*>A2	*>A2	*>A2	*>A2	*>A2	*>A2	*>A2	*>A2
[1EE#	p	[1B	p	1d	p	[1g#	p
=96	=96	=96	=96	=96	=96	=96	=96
2EE#/_	<	2B/_	<	[2c#/	<	2g#/_	<
8EE#/]	>	8B/]	>	8c#/]	>	8g#/]	>
=	=	=	=	=	=	=	=
*>B	*>B	*>B	*>B	*>B	*>B	*>B	*>B
8r	.	8c#\L	f	8r	.	8r	.
4r	.	8d\	.	4r	.	4r	.
.	.	8c#\J	.	.	.	.	.
=97	=97	=97	=97	=97	=97	=97	=97
8r	.	1A	.	1r	.	2r	.
8C#/L	f	.	.	.	.	.	.
8D/	.	.	.	.	.	.	.
8C#/J	.	.	.	.	.	.	.
[2F#\	.	.	.	.	.	8r	.
.	.	.	.	.	.	8cc#\L	f
.	.	.	.	.	.	8dd\	.
.	.	.	.	.	.	8cc#\J	.
=98	=98	=98	=98	=98	=98	=98	=98
4F#\]	.	2.d\	.	8r	.	[2ff#\	.
.	.	.	.	8c#/L	f	.	.
(4C#/	.	.	.	8d/	.	.	.
.	.	.	.	8c#/J	.	.	.
4AA/	.	.	.	4f#/	.	8ff#\L]	.
.	.	.	.	.	.	8aa\	.
4FF#/)	.	4C#/	.	4a/	.	8gg#\	.
.	.	.	.	.	.	8ff#\J	.
=99	=99	=99	=99	=99	=99	=99	=99
(2CC#/	.	4.G#/	.	2b\	.	8ff#\L	.
.	.	.	.	.	.	8ee#\	.
.	.	.	.	.	.	8dd#\	.
.	.	8C#/	.	.	.	8ee#\J	.
2FF#/)	.	4.F#/	.	2a/	.	8ff#\L	.
.	.	.	.	.	.	8aa\	.
.	.	.	.	.	.	8gg#\	.
.	.	8C#/	.	.	.	8ff#\J	.
=100	=100	=100	=100	=100	=100	=100	=100
(2CC#/	.	4.G#/	.	2b\	.	8ff#\L	.
.	.	.	.	.	.	8ee#\	.
.	.	.	.	.	.	8dd#\	.
.	.	8C#/	.	.	.	8ee#\J	.
2FF#/)	.	4.F#/	.	2a/	.	8ff#\L	.
.	.	.	.	.	.	8aa\	.
.	.	.	.	.	.	8gg#\	.
.	.	8C#/	.	.	.	8ff#\J	.
=101	=101	=101	=101	=101	=101	=101	=101
4CC#/	.	4G#/	.	4e/	.	8ff#\L	.
.	.	.	.	.	.	8ee\	.
4C#/	.	4e\	.	4g#/	.	8dd#\	.
.	.	.	.	.	.	8cc#\J	.
4GG#/	.	4f#\	.	4g#/	.	8b#\L	.
.	.	.	.	.	.	8cc#\	.
4GG#/	.	4f#\	.	4g#/	.	8dd#\	.
.	.	.	.	.	.	8ee\J	.
=102	=102	=102	=102	=102	=102	=102	=102
(1C#	p	[1e	p	1g#	p	[1cc#	p
=103	=103	=103	=103	=103	=103	=103	=103
[2AA/)	<	1e]	<	1gn	<	1cc#]	<
8AA/L]	<	.	.	.	.	.	.
8AA/	.	.	.	.	.	.	.
8BB/	.	.	.	.	.	.	.
8AA/J	.	.	.	.	.	.	.
=104	=104	=104	=104	=104	=104	=104	=104
[1D	f	8d/L	<	4f#/	<	4dd\	<
.	.	8A/	.	.	.	.	.
.	.	8B/	.	4r	.	4r	.
.	.	8A/J	.	.	.	.	.
.	.	[2F#/	.	8r	.	2r	.
.	.	.	.	8a/L	.	.	.
.	.	.	.	8b/	.	.	.
.	.	.	.	8a/J	.	.	.
=105	=105	=105	=105	=105	=105	=105	=105
4D\]	.	4F#/]	.	4dd\	.	8r	.
.	.	.	.	.	.	8aa\L	.
4AA/	.	2d\	.	2f#/	.	8bb\	.
.	.	.	.	.	.	8aa\J	.
4FF#/	.	.	.	.	.	8ddd\L	.
.	.	.	.	.	.	8fff#\	.
4DD/	.	4f#\	.	4a/	.	8eee\	.
.	.	.	.	.	.	8ddd\J	.
=106	=106	=106	=106	=106	=106	=106	=106
(2AA/	.	4.e\	.	4.gn/	.	8ddd\L	.
.	.	.	.	.	.	8ccc#\	.
.	.	.	.	.	.	8bb\	.
.	.	8A/	.	8a/	.	8ccc#\J	.
2D\)	.	4.d\	.	4.f#/	.	8ddd\L	.
.	.	.	.	.	.	8fff#\	.
.	.	.	.	.	.	8eee\	.
.	.	8A/	.	8a/	.	8ddd\J	.
=107	=107	=107	=107	=107	=107	=107	=107
(2AA/	.	4.e\	.	4.gn/	.	8ddd\L	.
.	.	.	.	.	.	8ccc#\	.
.	.	.	.	.	.	8bb\	.
.	.	8A/	.	8a/	.	8ccc#\J	.
2D\)	.	4.d\	.	4.f#/	.	8ddd\L	.
.	.	.	.	.	.	8fff#\	.
.	.	.	.	.	.	8eee\	.
.	.	8A/	.	8a/	.	8ddd\J	.
=108	=108	=108	=108	=108	=108	=108	=108
(2AA/	.	4.e\	.	4.gn/	.	8ddd\L	.
.	.	.	.	.	.	8ccc#\	.
.	.	.	.	.	.	8bb\	.
.	.	8A/	.	8a/	.	8ccc#\J	.
4D\)	.	4d\	.	4f#/	.	8ddd\L	.
.	.	.	.	.	.	8fff#\	.
4r	.	4dd\	.	4ff#\	.	8eee\	.
.	.	.	.	.	.	8ddd\J	.
=109	=109	=109	=109	=109	=109	=109	=109
1r	.	2ee\	.	2ggn\	.	8ddd\L	.
.	.	.	.	.	.	8ccc#\	.
.	.	.	.	.	.	8bb#\	.
.	.	.	.	.	.	8ccc#\J	.
.	.	2dd\	.	2ff#\	.	8ccc#\L	.
.	.	.	.	.	.	8bb\	.
.	.	.	.	.	.	8aa\	.
.	.	.	.	.	.	8bb\J	.
=110	=110	=110	=110	=110	=110	=110	=110
8r	.	2cc#\	.	2ee\	.	8bb\L	.
8AA/L	.	.	.	.	.	8aa\	.
8BB/	.	.	.	.	.	8gg#\	.
8AA/J	.	.	.	.	.	8aa\J	.
4A\	.	2b\	.	[2dd\	.	8aa\L	.
.	.	.	.	.	.	8ggn\	.
4r	.	.	.	.	.	8ff#\	.
.	.	.	.	.	.	8ggn\J	.
=111	=111	=111	=111	=111	=111	=111	=111
8r	.	2a\	.	2dd\]	.	8ggn\L	.
8AA/L	.	.	.	.	.	8ff#\	.
8BB/	.	.	.	.	.	8ee\	.
8AA/J	.	.	.	.	.	8ff#\J	.
8A\L	.	2gn\	.	2cc#\	.	8ff#\L	.
8A\	.	.	.	.	.	8ee\	.
8B\	.	.	.	.	.	8dd#\	.
8A\J	.	.	.	.	.	8ee\J	.
=112	=112	=112	=112	=112	=112	=112	=112
4d\	.	4fn\	.	8a\L	.	4dd\	.
.	.	.	.	8dd\	.	.	.
4r	.	4r	.	8cc#\	.	4r	.
.	.	.	.	8dd\J	.	.	.
(2fn\	.	2a\	.	8dd\L	.	2r	.
.	.	.	.	8ffn\	.	.	.
.	.	.	.	8ee\	.	.	.
.	.	.	.	8dd\J	.	.	.
=113	=113	=113	=113	=113	=113	=113	=113
2e\	.	2gn\	.	8dd\L	.	1r	.
.	.	.	.	8ccn\	.	.	.
.	.	.	.	8b\	.	.	.
.	.	.	.	8ccn\J	.	.	.
2d\	.	2fn\	.	8ccn\L	.	.	.
.	.	.	.	8b-\	.	.	.
.	.	.	.	8a\	.	.	.
.	.	.	.	8b-\J	.	.	.
=114	=114	=114	=114	=114	=114	=114	=114
2cn\	.	2e\	.	8b-/L	.	8r	.
.	.	.	.	8a/	.	8a/L	.
.	.	.	.	8g#/	.	8b-/	.
.	.	.	.	8a/J	.	8a/J	.
2B-\	.	[2d\	.	8a/L	.	4aa\	.
.	.	.	.	8gn/	.	.	.
.	.	.	.	8f#/	.	4r	.
.	.	.	.	8gn/J	.	.	.
=115	=115	=115	=115	=115	=115	=115	=115
2A\	.	2d\]	.	8gn/L	.	8r	.
.	.	.	.	8fn/	.	8a/L	.
.	.	.	.	8e/	.	8b-/	.
.	.	.	.	8fn/J	.	8a/J	.
2Gn\	.	2c#\	.	8fn/L	.	8aa\L	.
.	.	.	.	8e/	.	8aa\	.
.	.	.	.	8d#/	.	8bb-\	.
.	.	.	.	8e/J	.	8aa\J	.
=116	=116	=116	=116	=116	=116	=116	=116
8Fn\L)	ff	4d\	.	4d/	.	4ddd\	.
8D\	.	.	.	.	.	.	.
8E\	.	4r	.	4r	.	4r	.
8D\J	.	.	.	.	.	.	.
[2d\	.	8r	.	2r	.	8r	.
.	.	8cn/L	ff	.	.	8ee-\L	ff
.	.	8B/	.	.	.	8dd\	.
.	.	8cn/J	.	.	.	8ee-\J	.
=117	=117	=117	=117	=117	=117	=117	=117
1d]	.	8cn/L	.	1r	.	8ee-\L	.
.	.	8B-/	.	.	.	8dd\	.
.	.	8A/	.	.	.	8cc#\	.
.	.	8B-/J	.	.	.	8dd\J	.
.	.	8B-/L	.	.	.	8dd\L	.
.	.	8A/	.	.	.	8ccn\	.
.	.	8G#/	.	.	.	8b\	.
.	.	8A/J	.	.	.	8ccn\J	.
=118	=118	=118	=118	=118	=118	=118	=118
4Gn\	.	4Gn/	.	2r	.	8b\	.
.	.	.	.	.	.	8gn/L	.
4r	.	4r	.	.	.	8a/	.
.	.	.	.	.	.	8gn/J	.
2r	.	8r	.	8r	.	[2ggn\	.
.	.	8fn\L	.	8a/L	ff	.	.
.	.	8e\	.	8g#/	.	.	.
.	.	8fn\J	.	8a/J	.	.	.
=119	=119	=119	=119	=119	=119	=119	=119
1r	.	8fn\L	.	8a/L	.	1gg]	.
.	.	8e\	.	8g#/	.	.	.
.	.	8d#\	.	8f#/	.	.	.
.	.	8e\J	.	8g#/J	.	.	.
.	.	8e\L	.	8g#/L	.	.	.
.	.	8d\	.	8fn/	.	.	.
.	.	8c#\	.	8e/	.	.	.
.	.	8d\J	.	8fn/J	.	.	.
=120	=120	=120	=120	=120	=120	=120	=120
8r	.	4cn\	.	4e/	.	4cccn\	.
8Cn/L	ff	.	.	.	.	.	.
8D/	.	4r	.	4r	.	4r	.
8Cn/J	.	.	.	.	.	.	.
[2cn\	.	8r	.	2r	.	8r	.
.	.	8B-/L	.	.	.	8dd\L	.
.	.	8A/	.	.	.	8cc#\	.
.	.	8B-/J	.	.	.	8dd\J	.
=121	=121	=121	=121	=121	=121	=121	=121
1c]	.	8B-/L	.	1r	.	8dd\L	.
.	.	8A/	.	.	.	8ccn\	.
.	.	8G#/	.	.	.	8b\	.
.	.	8A/J	.	.	.	8ccn\J	.
.	.	8A/L	.	.	.	8ccn\L	.
.	.	8Gn/	.	.	.	8b-\	.
.	.	8F#/	.	.	.	8a\	.
.	.	8Gn/J	.	.	.	8b-\J	.
=122	=122	=122	=122	=122	=122	=122	=122
4Fn\	.	4Fn/	.	2r	.	8a/L	.
.	.	.	.	.	.	8a/	.
4r	.	4r	.	.	.	8b-/	.
.	.	.	.	.	.	8a/J	.
2r	.	8r	.	8r	.	[2aa\	.
.	.	8gn\L	.	8ee\L	.	.	.
.	.	8f#\	.	8dd#\	.	.	.
.	.	8gn\J	.	8ee\J	.	.	.
=123	=123	=123	=123	=123	=123	=123	=123
(2Fn\	.	8gn\L	.	8ee\L	.	1aa]	.
.	.	8fn\	.	8dd\	.	.	.
.	.	8e\	.	8cc#\	.	.	.
.	.	8fn\J	.	8dd\J	.	.	.
2F#\)	.	8fn\L	.	8dd\L	.	.	.
.	.	8e\	.	8ccn\	.	.	.
.	.	8d#\	.	8b\	.	.	.
.	.	8e\J	.	8ccn\J	.	.	.
=124	=124	=124	=124	=124	=124	=124	=124
4Gn\	.	4d\	.	8b\	.	8ggn\	.
.	.	.	.	8b\L	.	8dd\L	.
4r	.	4r	.	8ccn\	.	8ee\	.
.	.	.	.	8b\J	.	8dd\J	.
2r	.	8r	.	[2dd\	.	[2ffn\	.
.	.	8Gn/L	.	.	.	.	.
.	.	8A/	.	.	.	.	.
.	.	8Gn/J	.	.	.	.	.
=125	=125	=125	=125	=125	=125	=125	=125
1r	.	[2gn\	.	8dd\]	.	8ff\]	.
.	.	.	.	8ccn\L	.	8ee\L	.
.	.	.	.	8dd\	.	8ffn\	.
.	.	.	.	8ccn\J	.	8ee\J	.
.	.	8g\L]	.	[2ee\	.	[2ggn\	.
.	.	8Gn\	.	.	.	.	.
.	.	8A\	.	.	.	.	.
.	.	8Gn\J	.	.	.	.	.
=126	=126	=126	=126	=126	=126	=126	=126
1r	.	8gn\L	.	8ee\]	.	8gg\]	.
.	.	8Gn\	.	8dd\L	.	8ffn\L	.
.	.	8gn\	.	8ee\	.	8ggn\	.
.	.	8Gn\J	.	8dd\J	.	8ffn\J	.
.	.	8gn\L	.	4ffn\	.	4aa\	.
.	.	8Gn\	.	.	.	.	.
.	.	8gn\	.	4ee\	.	4ggn\	.
.	.	8Gn\J	.	.	.	.	.
=127	=127	=127	=127	=127	=127	=127	=127
1r	.	8gn\L	.	4dd#\	.	4ff#\	.
.	.	8Gn\	.	.	.	.	.
.	.	8gn\	.	4dd\	.	4ffn\	.
.	.	8Gn\J	.	.	.	.	.
.	.	8gn\L	.	4cc#\	.	4ee\	.
.	.	8Gn\	.	.	.	.	.
.	.	8gn\	.	4ccn\	.	4ee-\	.
.	.	8Gn\J	.	.	.	.	.
=128	=128	=128	=128	=128	=128	=128	=128
4GGn/	.	8gn\	.	8b\	.	4dd\	.
.	.	8B/L	.	8dd\L	.	.	.
4r	.	8cn/	.	8ee\	.	4r	.
.	.	8B/J	.	8dd\J	.	.	.
4r	.	[2d\	.	[2ffn\	.	8r	.
.	.	.	.	.	.	8ggn\L	.
4Gn\	.	.	.	.	.	8aa\	.
.	.	.	.	.	.	8ggn\J	.
=129	=129	=129	=129	=129	=129	=129	=129
4GGn/	.	8d\]	.	8ff\]	.	[2gggn\	.
.	.	8cn\L	.	8ee\L	.	.	.
4r	.	8d\	.	8ffn\	.	.	.
.	.	8cn\J	.	8ee\J	.	.	.
4r	.	[2e\	.	[2ggn\	.	8ggg\L]	.
.	.	.	.	.	.	8ggn\	.
4Gn\	.	.	.	.	.	8aa\	.
.	.	.	.	.	.	8ggn\J	.
=130	=130	=130	=130	=130	=130	=130	=130
4GGn/	.	8e\]	.	8gg\]	.	8gggn\L	.
.	.	8d\L	.	8ffn\L	.	8ggn\	.
4r	.	8e\	.	8ggn\	.	8gggn\	.
.	.	8d\J	.	8ffn\J	.	8ggn\J	.
4r	.	4fn\	.	4aa\	.	8gggn\L	.
.	.	.	.	.	.	8ggn\	.
4Gn\	.	4e\	.	4ggn\	.	8gggn\	.
.	.	.	.	.	.	8ggn\J	.
=131	=131	=131	=131	=131	=131	=131	=131
4GGn/	.	4d#\	.	4ff#\	.	8gggn\L	.
.	.	.	.	.	.	8ggn\	.
4Gn\	.	4d\	.	4ffn\	.	8gggn\	.
.	.	.	.	.	.	8ggn\J	.
4GGn/	.	4c#\	.	4ee\	.	8gggn\L	.
.	.	.	.	.	.	8ggn\	.
4Gn\	.	4cn\	.	4ee-\	.	8fff#\	.
.	.	.	.	.	.	8ggn\J	.
=132	=132	=132	=132	=132	=132	=132	=132
4GGn/	.	4B/	.	4dd\	.	4gggn\	.
4D\	ff	4a\	ff	4ccn\	ff	4ff#\	ff
4Gn\	.	4gn\	.	4b\	.	4ggn\	.
4D\	.	4a\	.	4ccn\	.	4ff#\	.
=133	=133	=133	=133	=133	=133	=133	=133
4Gn\	.	4gn\	.	4b\	.	4ggn\	.
4r	.	4r	.	4r	.	4r	.
2r	.	2r	.	2r	.	2r	.
=134	=134	=134	=134	=134	=134	=134	=134
(1Cn	p	1Gn	p	[1cn	p	1e	p
=135	=135	=135	=135	=135	=135	=135	=135
1FFn)	.	1Fn	.	1c]	.	1a	.
=136	=136	=136	=136	=136	=136	=136	=136
[2GGn/	.	1Gn	.	1B	.	1d	.
(8GG/L]	.	.	.	.	.	.	.
8AA/	.	.	.	.	.	.	.
8GGn/	.	.	.	.	.	.	.
8FFn/J)	.	.	.	.	.	.	.
=137	=137	=137	=137	=137	=137	=137	=137
4EE/	.	4Gn/	.	4cn/	.	[2gn/	.
4r	.	4r	.	4r	.	.	.
2r	.	2r	.	2r	.	8g/]	.
.	.	.	.	.	.	8gn/L	pp
.	.	.	.	.	.	8a/	.
.	.	.	.	.	.	8gn/J	.
=138	=138	=138	=138	=138	=138	=138	=138
4cn\	pp	4cn\	pp	8r	.	[2ee\	.
.	.	.	.	8gn/L	pp	.	.
4B\	.	4r	.	8a/	.	.	.
.	.	.	.	8gn/J	.	.	.
4A\	.	4a\	.	[2ccn\	.	8ee\L]	.
.	.	.	.	.	.	8ee\	.
4Gn\	.	4r	.	.	.	8ffn\	.
.	.	.	.	.	.	8ee\J	.
=139	=139	=139	=139	=139	=139	=139	=139
4Fn\	.	4fn\	.	8cc\L]	.	[2aa\	.
.	.	.	.	8ccn\	.	.	.
4E\	.	4r	.	8dd\	.	.	.
.	.	.	.	8ccn\J	.	.	.
4D\	.	4d\	.	[2ffn\	.	8aa\L]	.
.	.	.	.	.	.	8aa\	.
4Cn/	.	4r	.	.	.	8bb\	.
.	.	.	.	.	.	8aa\J	.
=140	=140	=140	=140	=140	=140	=140	=140
4BB/	.	4B/	.	4ff\]	.	[2ggn\	.
4GGn/	.	4r	.	4B/	.	.	.
4AA/	.	4Gn/	.	4cn/	.	8gg\L]	.
.	.	.	.	.	.	8ffn\	.
4BB/	.	4r	.	4d/	.	8ee\	.
.	.	.	.	.	.	8dd\J	.
=141	=141	=141	=141	=141	=141	=141	=141
4Cn/	.	4cn\	.	4e/	.	[2ee\	.
4EE/	.	4r	.	4g#/	.	.	.
4FF#/	.	4E/	.	4a/	.	8ee\L]	.
.	.	.	.	.	.	8dd\	.
4GG#/	.	4r	.	4b\	.	8ccn\	.
.	.	.	.	.	.	8b\J	.
=142	=142	=142	=142	=142	=142	=142	=142
4AA/	.	4A/	.	[2ccn\	.	8a/	.
.	.	.	.	.	.	8e/L	.
4Gn\	.	4r	.	.	.	8fn/	.
.	.	.	.	.	.	8e/J	.
4Fn\	.	4fn\	.	8cc\L]	.	[2a/	.
.	.	.	.	8ccn\	.	.	.
4E\	.	4r	.	8dd\	.	.	.
.	.	.	.	8ccn\J	.	.	.
=143	=143	=143	=143	=143	=143	=143	=143
4D\	.	4d\	.	[2ffn\	.	8a/]	.
.	.	.	.	.	.	8a/L	.
4Cn/	.	4r	.	.	.	8b/	.
.	.	.	.	.	.	8a/J	.
4BB/	.	4B/	.	8ff\L]	.	[2dd\	.
.	.	.	.	8ffn\	.	.	.
4AA/	.	4r	.	8ggn\	.	.	.
.	.	.	.	8ffn\J	.	.	.
=144	=144	=144	=144	=144	=144	=144	=144
4GG#/	.	4G#/	.	[2ee\	.	4dd\]	.
4EE/	.	4r	.	.	.	4g#/	.
4FF#/	.	4E/	.	8ee\L]	.	4a/	.
.	.	.	.	8dd\	.	.	.
4GG#/	.	4r	.	8ccn\	.	4b\	.
.	.	.	.	8b\J	.	.	.
=145	=145	=145	=145	=145	=145	=145	=145
4AA/	.	4A/	.	8ccn/L	.	4ccn\	.
.	.	.	.	8b/	.	.	.
4BB/	.	4r	.	8a/	.	4dd#\	.
.	.	.	.	8g#/J	.	.	.
4Cn/	.	4cn\	.	8a/L	.	4ee\	.
.	.	.	.	8ccn/	.	.	.
4D#\	.	4r	.	8b/	.	4ff#\	.
.	.	.	.	8a/J	.	.	.
=146	=146	=146	=146	=146	=146	=146	=146
4E\	.	4e\	.	8gn/	.	[2ggn\	.
.	.	.	.	8b\L	.	.	.
4D\	.	4r	.	8ccn\	.	.	.
.	.	.	.	8b\J	.	.	.
4Cn/	.	2r	.	[2ee\	.	8gg\L]	.
.	.	.	.	.	.	8ggn\	.
4BB/	.	.	.	.	.	8aa\	.
.	.	.	.	.	.	8ggn\J	.
=147	=147	=147	=147	=147	=147	=147	=147
4AA/	.	8r	.	2ee\_	.	1cccn	.
.	.	8A/L	.	.	.	.	.
4Cn/	.	8B/	.	.	.	.	.
.	.	8A/J	.	.	.	.	.
4E\	.	[2a\	.	8ee\L]	.	.	.
.	.	.	.	8ee\	.	.	.
4A\	.	.	.	8ff#\	.	.	.
.	.	.	.	8ee\J	.	.	.
=148	=148	=148	=148	=148	=148	=148	=148
4B\	.	8a\L]	.	1dd#	.	[2ff#\	.
.	.	8a\	.	.	.	.	.
4F#\	.	8b\	.	.	.	.	.
.	.	8a\J	.	.	.	.	.
4D#\	.	[2A/	.	.	.	8ff#\L]	.
.	.	.	.	.	.	8ff#\	.
4BB/	.	.	.	.	.	8ggn\	.
.	.	.	.	.	.	8ff#\J	.
=149	=149	=149	=149	=149	=149	=149	=149
4EE/	.	4A/]	.	[2dd\	.	[1bb	.
4GG#/	.	4G#/	.	.	.	.	.
4BB/	.	4r	.	8dd\L]	.	.	.
.	.	.	.	8dd\	.	.	.
4E\	.	4g#\	.	8ee\	.	.	.
.	.	.	.	8dd\J	.	.	.
=150	=150	=150	=150	=150	=150	=150	=150
4AA/	<	4gn\	<	2cc#\	<	8bb\]	.
.	.	.	.	.	.	8ee\L	<
4Gn\	<	4a\	<	.	.	8ff#\	<
.	.	.	.	.	.	8ee\J	.
4F#\	.	4d\	.	8ccn\L	<	[2aa\	.
.	.	.	.	8ccn\	.	.	.
4D\	.	4f#\	.	8dd\	.	.	.
.	.	.	.	8ccn\J	.	.	.
=151	=151	=151	=151	=151	=151	=151	=151
4GGn/	.	4fn\	.	2b\	.	8aa\]	.
.	.	.	.	.	.	8dd\L	.
4Fn\	.	4gn\	.	.	.	8ee\	.
.	.	.	.	.	.	8dd\J	.
4E\	.	4cn\	.	8b-\L	.	[2ggn\	.
.	.	.	.	8b-\	.	.	.
4Cn/	.	4e\	.	8ccn\	.	.	.
.	.	.	.	8b-\J	.	.	.
=152	=152	=152	=152	=152	=152	=152	=152
4FFn/	.	4fn\	.	[2a/	.	8gg\]	.
.	.	.	.	.	.	8ccn\L	.
4Fn\	.	4Fn/	.	.	.	8dd\	.
.	.	.	.	.	.	8ccn\J	.
4EE/	.	4e\	.	8a/L]	.	[2ffn\	.
.	.	.	.	8a/	.	.	.
4E\	.	4E/	.	8g#/	.	.	.
.	.	.	.	8a/J	.	.	.
=153	=153	=153	=153	=153	=153	=153	=153
4DD/	.	4d\	.	4b\	.	8ff\L]	.
.	.	.	.	.	.	8ee\	.
4D\	.	4D/	.	2fn/	.	8dd\	.
.	.	.	.	.	.	8ccn\J	.
4D\	.	4d\	.	.	.	8b\L	.
.	.	.	.	.	.	8ccn\	.
4D#\	.	4cn\	.	4f#/	.	8a\	.
.	.	.	.	.	.	8b\J	.
=154	=154	=154	=154	=154	=154	=154	=154
4E\	.	4B/	.	4e/	.	4g#/	.
4E\	p	4r	.	4r	.	4r	.
4E\	.	2r	.	2r	.	8r	.
.	.	.	.	.	.	8ee\L	p
4E\	.	.	.	.	.	8dd#\	.
.	.	.	.	.	.	8ee\J	.
=155	=155	=155	=155	=155	=155	=155	=155
4E\	.	1d	p	1g#	p	[2ffn\	.
4E\	.	.	.	.	.	.	.
4E\	.	.	.	.	.	8ff\L]	.
.	.	.	.	.	.	8ffn\	.
4E\	.	.	.	.	.	8ggn\	.
.	.	.	.	.	.	8ffn\J	.
=156	=156	=156	=156	=156	=156	=156	=156
4E\	.	1cn	.	1a	.	[2ee\	.
4E\	.	.	.	.	.	.	.
4E\	.	.	.	.	.	8ee\L]	.
.	.	.	.	.	.	8ee\	.
4E\	.	.	.	.	.	8ffn\	.
.	.	.	.	.	.	8ee\J	.
=157	=157	=157	=157	=157	=157	=157	=157
4E\	.	4A/	.	4ccn\	.	4dd#\	.
4E\	.	4A/	.	4ccn\	.	4dd#\	.
4E\	.	4A/	.	4ccn\	.	4dd#\	.
4E\	.	4A/	.	4ccn\	.	4dd#\	.
=158	=158	=158	=158	=158	=158	=158	=158
4E\	.	4G#/	.	4b\	.	4ee\	.
4r	.	4E/	.	4r	.	4r	.
2r	.	4E/	.	8r	.	2r	.
.	.	.	.	8e/L	.	.	.
.	.	4E/	.	8d#/	.	.	.
.	.	.	.	8e/J	.	.	.
=159	=159	=159	=159	=159	=159	=159	=159
*clefC4	*clefG2	*	*	*	*	*	*
1d	.	4E/	.	[2fn/	.	1gg#	.
.	.	4E/	.	.	.	.	.
.	.	4E/	.	8f/L]	.	.	.
.	.	.	.	8fn/	.	.	.
.	.	4E/	.	8gn/	.	.	.
.	.	.	.	8fn/J	.	.	.
=160	=160	=160	=160	=160	=160	=160	=160
1c#	.	4E/	.	[2e/	.	1aa	.
.	.	4E/	.	.	.	.	.
.	.	4E/	.	8e/L]	.	.	.
.	.	.	.	8e/	.	.	.
.	.	4E/	.	8fn/	.	.	.
.	.	.	.	8e/J	.	.	.
=161	=161	=161	=161	=161	=161	=161	=161
4a\	.	4E/	.	4d#/	.	4cccn\	.
4a\	.	4E/	.	4d#/	.	4cccn\	.
4a\	.	4E/	.	4d#/	.	4cccn\	.
4a\	.	4E/	.	4d#/	.	4cccn\	.
=162	=162	=162	=162	=162	=162	=162	=162
4g#\	.	4E/	.	4e/	.	4bb\	.
4e\	.	4r	.	4r	.	4r	.
4e\	.	4r	.	4r	.	8r	.
.	.	.	.	.	.	8ee\L	.
4e\	.	4g#\	.	4b\	.	8ffn\	.
.	.	.	.	.	.	8ee\J	.
=163	=163	=163	=163	=163	=163	=163	=163
4e\	.	4a\	.	4ccn\	.	4dd#\	.
4e\	.	4a\	.	4ccn\	.	4dd#\	.
4e\	.	4a\	.	4ccn\	.	4dd#\	.
4e\	.	4a\	.	4ccn\	.	4dd#\	.
=164	=164	=164	=164	=164	=164	=164	=164
4e\	.	4g#\	.	4b\	.	4ee\	.
*clefF4	*clefF4	*	*	*	*	*	*
4E\	.	4r	.	4r	.	4r	.
4E\	.	4r	.	8r	.	4r	.
.	.	.	.	8e/L	.	.	.
4E\	.	4G#/	.	8fn/	.	4bb\	.
.	.	.	.	8e/J	.	.	.
=165	=165	=165	=165	=165	=165	=165	=165
4E\	.	4A/	.	4d#/	.	4cccn\	.
4E\	.	4A/	.	4d#/	.	4cccn\	.
4E\	.	4A/	.	4d#/	.	4cccn\	.
4E\	.	4A/	.	4d#/	.	4cccn\	.
=166	=166	=166	=166	=166	=166	=166	=166
1E	<	1G#	<	1e	<	1bb	<
=167	=167	=167	=167	=167	=167	=167	=167
1EE	<	1B	<	1g#	<	1ddd	<
=168	=168	=168	=168	=168	=168	=168	=168
[1EE	p	[1E [1d	p	[1b	p	[1gg#	p
=169	=169	=169	=169	=169	=169	=169	=169
2EE/_	.	2E/_ 2d/_	.	2b\_	.	2gg#\_	.
8EE/]	.	8E/] 8d/]	.	8b\]	.	8gg#\]	.
8r	.	8e\L	p	8r	.	8r	.
4r	.	8f#\	.	4r	.	4r	.
.	.	8e\J	.	.	.	.	.
=170	=170	=170	=170	=170	=170	=170	=170
8r	.	[1c#	.	1r	.	2r	.
8E\L	p	.	.	.	.	.	.
8F#\	.	.	.	.	.	.	.
8E\J	.	.	.	.	.	.	.
[2A\	.	.	.	.	.	8r	.
.	.	.	.	.	.	8ee\L	p
.	.	.	.	.	.	8ff#\	.
.	.	.	.	.	.	8ee\J	.
=171	=171	=171	=171	=171	=171	=171	=171
4A\]	.	2c#\]	.	8r	.	[2aa\	.
.	.	.	.	8e/L	.	.	.
(4E\	.	.	.	8f#/	.	.	.
.	.	.	.	8e/J	.	.	.
4C#/	.	4e\	.	4a/	.	8aa\L]	.
.	.	.	.	.	.	8ccc#\	.
4AA/)	.	4c#\	.	4cc#\	.	8bb\	.
.	.	.	.	.	.	8aa\J	.
=172	=172	=172	=172	=172	=172	=172	=172
(2EE/	.	4.B/	.	4.dd\	.	8aa\L	.
.	.	.	.	.	.	8gg#\	.
.	.	.	.	.	.	8ff#\	.
.	.	8d\	.	8b\	.	8gg#\J	.
2AA/)	.	4.A/	.	4.cc#\	.	8aa\L	.
.	.	.	.	.	.	8ccc#\	.
.	.	.	.	.	.	8bb\	.
.	.	8c#\	.	8a/	.	8aa\J	.
=173	=173	=173	=173	=173	=173	=173	=173
(2EE/	.	4.B/	.	4.dd\	.	8aa\L	.
.	.	.	.	.	.	8gg#\	.
.	.	.	.	.	.	8ff#\	.
.	.	8d\	.	8b\	.	8gg#\J	.
2AA/)	.	4.A/	.	4.cc#\	.	8aa\L	.
.	.	.	.	.	.	8ccc#\	.
.	.	.	.	.	.	8bb\	.
.	.	8c#\	.	8a/	.	8aa\J	.
=174	=174	=174	=174	=174	=174	=174	=174
4EE/	.	4B/	.	4g#/	.	8aa\L	.
.	.	.	.	.	.	8gg#\	.
4E\	.	4B/	.	4g#/	.	8ff#\	.
.	.	.	.	.	.	8ee\J	.
4BB/	.	4B/	.	4a/	.	8dd#\L	.
.	.	.	.	.	.	8ee\	.
4BB/	.	4B/	.	4a/	.	8ff#\	.
.	.	.	.	.	.	8gg#\J	.
=175	=175	=175	=175	=175	=175	=175	=175
[2E\	.	[2B/	.	[2g#/	.	[2ee\	.
8E\]	.	8B/]	.	8g#/]	.	8ee\]	.
8r	.	8r	.	8r	.	8bb\L	.
4r	.	4r	.	4r	.	8aa#\	.
.	.	.	.	.	.	8bb\J	.
=176	=176	=176	=176	=176	=176	=176	=176
1r	.	2r	.	8r	.	[1dd	.
.	.	.	.	8b/L	.	.	.
.	.	.	.	8a#/	.	.	.
.	.	.	.	8b/J	.	.	.
.	.	8r	.	[2d/	.	.	.
.	.	8B/L	.	.	.	.	.
.	.	8A#/	.	.	.	.	.
.	.	8B/J	.	.	.	.	.
=177	=177	=177	=177	=177	=177	=177	=177
8r	.	2E/	.	4d/]	.	2dd\_	.
8BB/L	.	.	.	.	.	.	.
8AA#/	.	.	.	4G#/	.	.	.
8BB/J	.	.	.	.	.	.	.
2EE/	.	4G#/	.	4B/	.	8dd\L]	.
.	.	.	.	.	.	8ff#\	.
.	.	4B/	.	4d/	.	8ee\	.
.	.	.	.	.	.	8dd\J	.
=178	=178	=178	=178	=178	=178	=178	=178
(2AA/	.	4.A/	.	4.c#/	.	8dd\L	.
.	.	.	.	.	.	8cc#\	.
.	.	.	.	.	.	8b\	.
.	.	8E/	.	8e/	.	8a\J	.
2E\	.	4.B/	.	4.d/	.	8g#/L	.
.	.	.	.	.	.	8a/	.
.	.	.	.	.	.	8b/	.
.	.	8E/	.	8e/	.	8cc#/J	.
=179	=179	=179	=179	=179	=179	=179	=179
2AA/	.	4.A/	.	4.c#/	.	8a\L	.
.	.	.	.	.	.	8cc#\	.
.	.	.	.	.	.	8ee\	.
.	.	8E/	.	8e/	.	8ee\J	.
2EE/)	.	4.G#/	.	4.B/	.	8ee\L	.
.	.	.	.	.	.	8ff#\	.
.	.	.	.	.	.	8ee\	.
.	.	8E/	.	8e/	.	8dd\J	.
=180	=180	=180	=180	=180	=180	=180	=180
(2AA/	.	4.A/	.	4.c#/	.	8dd\L	.
.	.	.	.	.	.	8cc#\	.
.	.	.	.	.	.	8b\	.
.	.	8E/	.	8e/	.	8a\J	.
2E\)	.	4.B/	.	4.d/	.	8g#/L	.
.	.	.	.	.	.	8a/	.
.	.	.	.	.	.	8b/	.
.	.	8E/	.	8e/	.	8cc#/J	.
=181	=181	=181	=181	=181	=181	=181	=181
4AA/	.	8E/	.	2.c#/	.	2.a/	.
.	.	8e\L	.	.	.	.	.
4r	.	8f#\	.	.	.	.	.
.	.	8e\J	.	.	.	.	.
2r	.	2ee\	.	.	.	.	.
.	.	.	.	4g#/	.	4b\	.
=182	=182	=182	=182	=182	=182	=182	=182
1r	.	1r	.	4a/	.	4cc#\	.
.	.	.	.	4g#/	.	4b\	.
.	.	.	.	4b\	.	4dd\	.
.	.	.	.	4a/	.	4cc#\	.
=183	=183	=183	=183	=183	=183	=183	=183
8r	.	1r	.	2.g#/	.	2.b\	.
8E\L	.	.	.	.	.	.	.
8F#\	.	.	.	.	.	.	.
8E\J	.	.	.	.	.	.	.
2e\	.	.	.	.	.	.	.
.	.	.	.	4a#/	.	4cc#\	.
=184	=184	=184	=184	=184	=184	=184	=184
1r	.	1r	.	4b\	.	4dd\	.
.	.	.	.	4a#/	.	4cc#\	.
.	.	.	.	4cc#\	.	4ee\	.
.	.	.	.	4b\	.	4dd\	.
=185	=185	=185	=185	=185	=185	=185	=185
(2.A\	.	2.A/	.	4a/	.	8cc#\	.
.	.	.	.	.	.	8a/L	.
.	.	.	.	4r	.	8b/	.
.	.	.	.	.	.	8a/J	.
.	.	.	.	2r	.	[2aa\	.
4e\	.	4c#\	.	.	.	.	.
=186	=186	=186	=186	=186	=186	=186	=186
4f#\	.	4d\	.	1r	.	1aa_	.
4e\	.	4c#\	.	.	.	.	.
4gn\	.	4e\	.	.	.	.	.
4f#\)	.	4d\	.	.	.	.	.
=187	=187	=187	=187	=187	=187	=187	=187
*clefC4	*clefG2	*	*	*	*	*	*
(2.e\	.	2.c#\	.	1r	.	8aa\L]	.
.	.	.	.	.	.	8a\	.
.	.	.	.	.	.	8b\	.
.	.	.	.	.	.	8a\J	.
.	.	.	.	.	.	[2aa\	.
4f#\	.	4d#\	.	.	.	.	.
=188	=188	=188	=188	=188	=188	=188	=188
4gn\	.	4e\	.	1r	.	2.aa\]	.
4f#\	.	4d#\	.	.	.	.	.
4a\	.	4f#\	.	.	.	.	.
4gn\)	.	4e\	.	.	.	4ccc#\	.
=189	=189	=189	=189	=189	=189	=189	=189
(2.f#\	<	8d/L	.	2.dd\	<	2.ddd\	<
.	.	8D/	<	.	.	.	.
.	.	8E/	<	.	.	.	.
.	.	8D/J	.	.	.	.	.
.	.	[2d\	.	.	.	.	.
4gn\	<	.	.	4cc#\	<	4eee\	<
=190	=190	=190	=190	=190	=190	=190	=190
4f#\	.	1d_	.	4dd\	.	4fff#\	.
4gn\	.	.	.	4cc#\	.	4eee\	.
4c#\	.	.	.	4ee\	.	4gggn\	.
4d\)	.	.	.	4dd\	.	4fff#\	.
=191	=191	=191	=191	=191	=191	=191	=191
(2.gn\	.	8d/L]	.	2.cc#\	.	2.eee\	.
.	.	8D/	.	.	.	.	.
.	.	8E/	.	.	.	.	.
.	.	8D/J	.	.	.	.	.
.	.	[2d\	.	.	.	.	.
4f#\	.	.	.	4dd\	.	4fff#\	.
=192	=192	=192	=192	=192	=192	=192	=192
4c#\	.	1d_	.	4ee\	.	4gggn\	.
4d\	.	.	.	4dd\	.	4fff#\	.
4B\	.	.	.	4ff#\	.	4aaa\	.
4c#\)	.	.	.	4ee\	.	4gggn\	.
=193	=193	=193	=193	=193	=193	=193	=193
4d\	.	4d\]	.	8dd\L	.	4fff#\	.
.	.	.	.	8ff#\	p	.	.
4r	.	4r	.	8ggn\	.	4r	.
.	.	.	.	8ff#\J	.	.	.
2r	.	8r	.	[2bb\	.	8r	.
.	.	8dd\L	p	.	.	8fff#\L	p
.	.	8ee\	.	.	.	8gggn\	.
.	.	8dd\J	.	.	.	8fff#\J	.
=194	=194	=194	=194	=194	=194	=194	=194
2r	.	4cc#\	.	2bb\]	.	8eee\L	.
.	.	.	.	.	.	8eee\	.
.	.	4r	.	.	.	8fff#\	.
.	.	.	.	.	.	8ggg#\J	.
*clefF4	*clefF4	*	*	*	*	*	*
8r	.	2r	.	[2aa\	.	8aaa\L	.
8c#\L	p	.	.	.	.	8ggg#\	.
8d\	.	.	.	.	.	8fff#\	.
8c#\J	.	.	.	.	.	8eee\J	.
=195	=195	=195	=195	=195	=195	=195	=195
4B\	.	2r	.	8aa\L]	.	[2ddd\	.
.	.	.	.	8aa\	.	.	.
4r	.	.	.	8bb\	.	.	.
.	.	.	.	8aa\J	.	.	.
2r	.	8r	.	[2gg#\	.	8ddd\L]	.
.	.	8b\L	.	.	.	8ddd\	.
.	.	8cc#\	.	.	.	8eee\	.
.	.	8b\J	.	.	.	8ddd\J	.
=196	=196	=196	=196	=196	=196	=196	=196
2r	.	4a\	.	2gg#\]	.	8ccc#\L	.
.	.	.	.	.	.	8ccc#\	.
.	.	4r	.	.	.	8ddd\	.
.	.	.	.	.	.	8eee\J	.
8r	.	2r	.	[2ff#\	.	8fff#\L	.
8A\L	.	.	.	.	.	8eee\	.
8B\	.	.	.	.	.	8ddd\	.
8A\J	.	.	.	.	.	8ccc#\J	.
=197	=197	=197	=197	=197	=197	=197	=197
4G#\	.	2r	.	8ff#\L]	.	[2bb\	.
.	.	.	.	8ff#\	.	.	.
4r	.	.	.	8gg#\	.	.	.
.	.	.	.	8ff#\J	.	.	.
2r	.	8r	.	[2ee\	.	8bb\L]	.
.	.	8g#\L	.	.	.	8bb\	.
.	.	8a\	.	.	.	8ccc#\	.
.	.	8g#\J	.	.	.	8bb\J	.
=198	=198	=198	=198	=198	=198	=198	=198
2r	.	4f#\	.	8ee\L]	.	[2aa\	.
.	.	.	.	8ee\	.	.	.
.	.	4r	.	8ff#\	.	.	.
.	.	.	.	8ee\J	.	.	.
8r	.	2r	.	2dd#\	.	8aa\L]	.
8F#\L	.	.	.	.	.	8aa\	.
8G#\	.	.	.	.	.	8bb\	.
8F#\J	.	.	.	.	.	8aa\J	.
=199	=199	=199	=199	=199	=199	=199	=199
4E\	.	1r	.	8ee\L	.	4gg#\	.
.	.	.	.	8ee\	.	.	.
(2E\	.	.	.	8ff#\	.	4r	.
.	.	.	.	8ee\J	.	.	.
.	.	.	.	8dd#\L	.	[2bb\	.
.	.	.	.	8dd\	.	.	.
8F#\L	.	.	.	8ee\	.	.	.
8G#\J)	.	.	.	8dd\J	.	.	.
=200	=200	=200	=200	=200	=200	=200	=200
4A\	.	1r	.	8cc#\L	.	2bb\]	.
.	.	.	.	8cc#\	.	.	.
4B\	.	.	.	8dd\	.	.	.
.	.	.	.	8cc#\J	.	.	.
4cn\	.	.	.	8ccn\L	.	2aa\	.
.	.	.	.	8ccn\	.	.	.
4A\	.	.	.	8dd\	.	.	.
.	.	.	.	8ccn\J	.	.	.
=201	=201	=201	=201	=201	=201	=201	=201
4e\	.	4r	.	4b\	.	8gg#\L	.
.	.	.	.	.	.	8eee\	.
4r	.	2e\	.	4r	.	8fff#\	.
.	.	.	.	.	.	8eee\J	.
2r	.	.	.	[2bb\	.	8ddd#\L	.
.	.	.	.	.	.	8ddd\	.
.	.	8f#\L	.	.	.	8eee\	.
.	.	8g#\J	.	.	.	8ddd\J	.
=202	=202	=202	=202	=202	=202	=202	=202
1r	.	4a\	.	2bb\]	.	8ccc#\L	.
.	.	.	.	.	.	8ccc#\	.
.	.	4b\	.	.	.	8ddd\	.
.	.	.	.	.	.	8ccc#\J	.
.	.	4ccn\	.	2aa\	.	8cccn\L	.
.	.	.	.	.	.	8cccn\	.
.	.	4a\	.	.	.	8ddd\	.
.	.	.	.	.	.	8cccn\J	.
=203	=203	=203	=203	=203	=203	=203	=203
4r	.	4ee\	.	8gg#\L	.	4bb\	.
.	.	.	.	8ee\	.	.	.
(2E\	.	4r	.	8ff#\	.	4r	.
.	.	.	.	8ee\J	.	.	.
.	.	2r	.	8dd#\L	.	[2bb\	.
.	.	.	.	8dd\	.	.	.
8F#\L	.	.	.	8ee\	.	.	.
8G#\J)	.	.	.	8dd\J	.	.	.
=204	=204	=204	=204	=204	=204	=204	=204
4A\	.	1r	.	8cc#\L	.	2bb\]	.
.	.	.	.	8cc#\	.	.	.
4B\	.	.	.	8dd\	.	.	.
.	.	.	.	8cc#\J	.	.	.
4cn\	.	.	.	8ccn\L	.	2aa\	.
.	.	.	.	8ccn\	.	.	.
4A\	.	.	.	8dd\	.	.	.
.	.	.	.	8ccn\J	.	.	.
=205	=205	=205	=205	=205	=205	=205	=205
4e\	.	4r	.	4b\	.	8gg#\L	<
.	.	.	.	.	.	8eee\	<
(2E\	<	2e\	<	4r	.	8fff#\	.
.	.	.	.	.	.	8eee\J	.
.	.	.	.	[2bb\	<	8ddd#\L	.
.	.	.	.	.	.	8ddd\	.
8F#\L	<	8f#\L	<	.	.	8eee\	.
8G#\J)	.	8g#\J	.	.	.	8ddd\J	.
=206	=206	=206	=206	=206	=206	=206	=206
4A\	.	4a\	.	2bb\]	<	8ccc#\L	.
.	.	.	.	.	.	8ccc#\	.
4B\	.	4b\	.	.	.	8ddd\	.
.	.	.	.	.	.	8ccc#\J	.
4cn\	.	4ccn\	.	2aa\	.	8cccn\L	.
.	.	.	.	.	.	8cccn\	.
4A\	.	4a\	.	.	.	8ddd\	.
.	.	.	.	.	.	8cccn\J	.
=207	=207	=207	=207	=207	=207	=207	=207
4e\	f	4ee\	f	8gg#\L	f	8bb\L	f
.	.	.	.	8gg#\	.	8bb\	.
4A\	.	4a\	.	8bb\	.	8ddd\	.
.	.	.	.	8aa\J	.	8cccn\J	.
4e\	.	4ee\	.	8gg#\L	.	8bb\L	.
.	.	.	.	8gg#\	.	8bb\	.
4A\	.	4a\	.	8bb\	.	8ddd\	.
.	.	.	.	8aa\J	.	8cccn\J	.
=208	=208	=208	=208	=208	=208	=208	=208
4e\	.	4ee\	.	4gg#\	.	4bb\	.
4r	.	4r	.	4r	.	4r	.
2r	.	2r	.	2r	.	2r	.
=209	=209	=209	=209	=209	=209	=209	=209
(1AA	pp	1E	pp	1r	.	1c#	pp
=210	=210	=210	=210	=210	=210	=210	=210
1DD	.	1D	.	1A	pp	1f#	.
=211	=211	=211	=211	=211	=211	=211	=211
1EE)	.	1E	.	1G#	.	1B	.
=212	=212	=212	=212	=212	=212	=212	=212
1CC#	.	[1Gn	.	1A#	.	1e	.
=213	=213	=213	=213	=213	=213	=213	=213
(2FF#/	<	4G/]	<	2c#/	<	2A#/	<
.	.	4F#/	<	.	.	.	.
[2BB/)	<	[2F#/	.	[2B/	<	[2d/	<
=214	=214	=214	=214	=214	=214	=214	=214
(2BB/]	.	2F#/]	.	2B/]	.	2d/]	.
2C#/)	.	2E/	.	2A/	.	[2c#/	.
=215	=215	=215	=215	=215	=215	=215	=215
(2D\	p	2F#/	p	4f#/	p	4c#/]	p
.	.	.	.	4r	.	2B/	.
2D#\)	.	2F#/	.	4f#/	.	.	.
.	.	.	.	4r	.	[4A/	.
=216	=216	=216	=216	=216	=216	=216	=216
4E\	.	4B/	.	4B/	.	(4A/]	.
4r	.	4r	.	4r	.	4G#/	.
2r	.	2r	.	4r	.	4B/)	.
.	.	.	.	4e/	.	4r	.
=217	=217	=217	=217	=217	=217	=217	=217
1r	.	4a\	.	1cc#	.	1r	.
.	.	4g#\	.	.	.	.	.
.	.	4f#\	.	.	.	.	.
.	.	4e\	.	.	.	.	.
=218	=218	=218	=218	=218	=218	=218	=218
1r	.	4d\	.	1ff#	.	1r	.
.	.	4c#\	.	.	.	.	.
.	.	4B/	.	.	.	.	.
.	.	4A/	.	.	.	.	.
=219	=219	=219	=219	=219	=219	=219	=219
(4G#\	p	1G#	.	4b\	.	1bb	p
4F#\	.	.	.	4aa\	.	.	.
4E\	.	.	.	4gg#\	.	.	.
4D\	.	.	.	4ff#\	.	.	.
=220	=220	=220	=220	=220	=220	=220	=220
4C#/	.	1c#	.	4ee\	.	1eee	.
4BB/	.	.	.	4dd\	.	.	.
4AA/	.	.	.	4cc#\	.	.	.
4GG#/	.	.	.	4b\	.	.	.
=221	=221	=221	=221	=221	=221	=221	=221
4FF#/)	.	4F#/	.	4a/	.	2aa\	<
(4D\	<	2f#\	<	4r	.	.	.
4BB/	<	.	.	2r	.	[2ddd\	<
4AA/	.	4fn\	<	.	.	.	.
=222	=222	=222	=222	=222	=222	=222	=222
4GG#/	.	2.e\	.	4r	.	2ddd\]	.
4EE/	.	.	.	2b\	<	.	.
4AA/	.	.	.	.	.	[2ccc#\	.
4C#/)	.	4e\	.	4a/	<	.	.
=223	=223	=223	=223	=223	=223	=223	=223
(4D\	p	4d\	p	4f#/	p	4ccc#\]	p
4BB/	.	4d\	.	4f#/	.	4bb\	.
4E\)	.	4c#\	.	4e/	.	4aa\	.
4EE/	.	4B/	.	4d/	.	4gg#\	.
=224	=224	=224	=224	=224	=224	=224	=224
4AA/	.	4A/	.	4c#/	.	4aa\	.
[2.e\	.	4r	.	4r	.	4r	.
.	.	4c#\	.	4ee\	.	2r	.
.	.	4B/	.	4dd\	.	.	.
=225	=225	=225	=225	=225	=225	=225	=225
2e\]	.	4A/	.	4cc#\	.	2r	.
.	.	4G#/	.	4b\	.	.	.
(4E\	.	4d\	.	4g#/	.	4ff#\	.
4F#\	.	4c#\	.	4a/	.	4ee\	.
=226	=226	=226	=226	=226	=226	=226	=226
4G#\	.	4B/	.	4b\	.	4dd\	.
4A\)	.	4A/	.	4cc#\	.	4cc#\	.
[2e\	.	4c#\	.	4ee\	.	2r	.
.	.	4B/	.	4dd\	.	.	.
=227	=227	=227	=227	=227	=227	=227	=227
2e\]	.	4A/	.	4cc#\	.	2r	.
.	.	4G#/	.	4b\	.	.	.
(4E\	.	4d\	.	4g#/	.	4ff#\	.
4F#\	.	4c#\	.	4a/	.	4ee\	.
=228	=228	=228	=228	=228	=228	=228	=228
4G#\	.	4B/	.	4b\	.	4dd\	.
4A\)	.	4A/	.	4cc#\	.	4cc#\	.
(4F#\	.	4e\	.	4a#/	.	4ggn\	.
4G#\	.	4d\	.	4b\	.	4ff#\	.
=229	=229	=229	=229	=229	=229	=229	=229
4A#\	.	4c#\	.	4cc#\	.	4ee\	.
4B\)	.	4B/	.	4dd\	.	4dd\	.
(4AA/	<	4gn\	<	4cc#\	<	4bb\	<
4BB/	<	4f#\	<	4dd\	<	4aa\	<
=230	=230	=230	=230	=230	=230	=230	=230
4C#/	.	4e\	.	2.a/	.	4ggn\	.
4D\	.	4d\	.	.	.	4ff#\	.
4E\	.	4c#\	.	.	.	4ee\	.
4F#\)	.	4A/	.	4a/	.	[4dd\	.
=231	=231	=231	=231	=231	=231	=231	=231
(4G#\	.	4B/	.	4e/	.	4dd\]	.
4A\	.	4A/	.	4e/	.	2cc#\	.
4E\)	.	4e\	.	4a/	.	.	.
4EE/	.	4e\	.	4g#/	.	4b\	.
=232	=232	=232	=232	=232	=232	=232	=232
1r	.	4a\	.	2r	.	4cc#\	.
.	.	4g#\	.	.	.	4b\	.
.	.	4f#\	.	4a/	p	4dd\	.
.	.	4e\	.	4a/	.	4cc#\	.
=233	=233	=233	=233	=233	=233	=233	=233
1r	.	4d\	.	4a/	.	4ff#\	.
.	.	4c#\	.	4a/	.	4ee\	.
.	.	4B/	.	4d/	.	4gg#\	.
.	.	4A/	.	4c#/	.	4aa\	.
=234	=234	=234	=234	=234	=234	=234	=234
(1G#	.	1B	.	[1e	.	[2bb\	.
.	.	.	.	.	.	8bb\L]	.
.	.	.	.	.	.	8gg#\	.
.	.	.	.	.	.	8ee\	.
.	.	.	.	.	.	8dd\J	.
=235	=235	=235	=235	=235	=235	=235	=235
4A\)	.	4A/	.	4e/]	.	8cc#\L	.
.	.	.	.	.	.	8ee\	.
4D\	.	4r	.	4f#/	.	8dd\	.
.	.	.	.	.	.	8b\J	.
4E\	.	2r	.	4c#/	.	8a/L	.
.	.	.	.	.	.	8cc#/	.
4EE/	.	.	.	4d/	.	8b/	.
.	.	.	.	.	.	8g#/J	.
=236	=236	=236	=236	=236	=236	=236	=236
2r	.	4a\	p	4cc#\	.	2r	.
.	.	4g#\	.	4b\	.	.	.
4f#\	p	2r	.	4a/	.	4ddd\	p
4e\	.	.	.	4a/	.	4ccc#\	.
=237	=237	=237	=237	=237	=237	=237	=237
4d\	.	2r	.	4a/	.	4fff#\	.
4c#\	.	.	.	4a/	.	4eee\	.
4B\	.	4e\	p	4dd\	.	4ggg#\	.
4A\	.	4e\	.	4cc#\	.	4aaa\	.
=238	=238	=238	=238	=238	=238	=238	=238
4G#\	f	4e#\	f	4cc#\	f	[1bbb	f
4r	.	4r	.	4r	.	.	.
2r	.	2r	.	2r	.	.	.
=239	=239	=239	=239	=239	=239	=239	=239
1r	.	1r	.	1r	.	4bbb\]	>
.	.	.	.	.	.	4aaa\	.
.	.	.	.	.	.	4ggg#\	.
.	.	.	.	.	.	4fff#\	.
=240	=240	=240	=240	=240	=240	=240	=240
(2c#\	pp	4dd\	pp	4bb\	pp	4eee#\	.
.	.	4b\	.	4gg#\	.	4ggg#\	.
2f#\	.	4a\	.	4ff#\	.	4aaa\	.
.	.	4cc#\	.	[4aa\	.	4fff#\	.
=241	=241	=241	=241	=241	=241	=241	=241
2B\	.	4ccn\	.	4aa\]	.	4ddd#\	.
.	.	4a\	.	4ff#\	.	4fff#\	.
2e\	.	4gn\	.	4ee\	.	4gggn\	.
.	.	4b\	.	[4ggn\	.	4eee\	.
=242	=242	=242	=242	=242	=242	=242	=242
2A\	.	4b-\	.	4gg\]	.	4ccc#\	.
.	.	4gn\	.	4ee\	.	4eee\	.
2d\	.	4f#\	.	4dd\	.	4fff#\	.
.	.	[4a\	.	4ff#\	.	4ddd\	.
=243	=243	=243	=243	=243	=243	=243	=243
2e\	.	4a\]	.	4cc#\	.	4ccc#\	.
.	.	4e\	.	4ee\	.	4eee\	.
2E\)	.	4g#\	.	4dd\	.	4bb\	.
.	.	4e\	.	4ee\	.	4eee\	.
=244	=244	=244	=244	=244	=244	=244	=244
4A\	p	4e\	p	4cc#\	p	8a\L	.
.	.	.	.	.	.	8cc#\	.
4r	.	4r	.	4r	.	8ee\	.
.	.	.	.	.	.	8cc#\J	.
2r	.	2r	.	2r	.	8aa\L	.
.	.	.	.	.	.	8ee\	.
.	.	.	.	.	.	8ccc#\	.
.	.	.	.	.	.	8aa\J	.
=245	=245	=245	=245	=245	=245	=245	=245
4r	.	4r	.	4r	.	2.eee\	.
4c#\	.	4e\	.	4gn/	.	.	.
4c#\	.	4e\	.	4gn/	.	.	.
4c#\	.	4e\	.	4gn/	.	4a#/	.
=246	=246	=246	=246	=246	=246	=246	=246
4d\	.	4d\	.	4f#/	.	4b\	.
4r	.	4r	.	4r	.	8dd\L	.
.	.	.	.	.	.	8ff#\J	.
2r	.	2r	.	2r	.	8bb\L	.
.	.	.	.	.	.	8ccc#\	.
.	.	.	.	.	.	8ddd\	.
.	.	.	.	.	.	8eee\J	.
=247	=247	=247	=247	=247	=247	=247	=247
4r	.	4r	.	4r	.	2.fff#\	.
4E\	.	4B/	.	4d/	.	.	.
4E\	.	4B/	.	4d/	.	.	.
4E\	.	4B/	.	4d/	.	4g#/	.
=248	=248	=248	=248	=248	=248	=248	=248
4A\	.	4A/	.	4c#/	.	8a\L	.
.	.	.	.	.	.	8cc#\	.
4r	.	4r	.	4r	.	8ee\	.
.	.	.	.	.	.	8cc#\J	.
2r	.	2r	.	2r	.	8aa\L	.
.	.	.	.	.	.	8ee\	.
.	.	.	.	.	.	8ccc#\	.
.	.	.	.	.	.	8aa\J	.
=249	=249	=249	=249	=249	=249	=249	=249
4r	.	4r	.	4r	.	2.eee\	.
4C#/	.	4e\	.	4ggn\	.	.	.
4C#/	.	4e\	.	4ggn\	.	.	.
4C#/	.	4e\	.	4ggn\	.	4a#/	.
=250	=250	=250	=250	=250	=250	=250	=250
4D\	.	4d\	.	4ff#\	.	4b\	.
4r	.	4r	.	4r	.	8dd\L	.
.	.	.	.	.	.	8ff#\J	.
2r	.	2r	.	2r	.	8bb\L	.
.	.	.	.	.	.	8ccc#\	.
.	.	.	.	.	.	8ddd\	.
.	.	.	.	.	.	8eee\J	.
=251	=251	=251	=251	=251	=251	=251	=251
4r	.	4r	.	4r	.	2.fff#\	.
4E\	.	4B/	.	4dd\	.	.	.
4E\	.	4B/	.	4dd\	.	.	.
4E\	.	4B/	.	4dd\	.	4g#/	.
=252	=252	=252	=252	=252	=252	=252	=252
4AA/	.	8A\L	.	4cc#\	.	4a/	.
.	.	8c#\	.	.	.	.	.
4r	.	8e\	.	4r	.	4r	.
.	.	8a\J	.	.	.	.	.
2r	.	8cc#\L	.	2r	.	2r	.
.	.	8a\	.	.	.	.	.
.	.	8cc#\	.	.	.	.	.
.	.	8a\J	.	.	.	.	.
=253	=253	=253	=253	=253	=253	=253	=253
1r	.	[1ee	.	4r	.	4r	.
.	.	.	.	4G#/	.	8dd\L	.
.	.	.	.	.	.	8b\J	.
.	.	.	.	4G#/	.	8dd\L	.
.	.	.	.	.	.	8b\	.
.	.	.	.	4G#/	.	8dd\	.
.	.	.	.	.	.	8b\J	.
=254	=254	=254	=254	=254	=254	=254	=254
1r	.	4ee\]	.	8A/L	.	4cc#\	.
.	.	.	.	8c#/	.	.	.
.	.	4r	.	8e/	.	4r	.
.	.	.	.	8a/J	.	.	.
.	.	2r	.	8cc#/L	.	2r	.
.	.	.	.	8a/	.	.	.
.	.	.	.	8e/	.	.	.
.	.	.	.	8c#/J	.	.	.
=255	=255	=255	=255	=255	=255	=255	=255
4r	.	1r	.	1d	.	4r	.
4E\	.	.	.	.	.	8b/L	.
.	.	.	.	.	.	8g#/J	.
4E\	.	.	.	.	.	8b/L	.
.	.	.	.	.	.	8g#/	.
4E\	.	.	.	.	.	8b/	.
.	.	.	.	.	.	8g#/J	.
=256	=256	=256	=256	=256	=256	=256	=256
4AA/	.	8A\L	.	4c#/	.	4a/	.
.	.	8c#\	.	.	.	.	.
4r	.	8e\	.	4r	.	4r	.
.	.	8a\J	.	.	.	.	.
2r	.	8cc#\L	.	2r	.	2r	.
.	.	8a\	.	.	.	.	.
.	.	8cc#\	.	.	.	.	.
.	.	8a\J	.	.	.	.	.
=257	=257	=257	=257	=257	=257	=257	=257
1r	.	[1ee	.	4r	.	4r	.
.	.	.	.	4g#/	.	8ddd\L	.
.	.	.	.	.	.	8bb\J	.
.	.	.	.	4g#/	.	8ddd\L	.
.	.	.	.	.	.	8bb\	.
.	.	.	.	4g#/	.	8ddd\	.
.	.	.	.	.	.	8bb\J	.
=258	=258	=258	=258	=258	=258	=258	=258
1r	.	4ee\]	.	8a\L	.	4ccc#\	.
.	.	.	.	8cc#\	.	.	.
.	.	4r	.	8ee\	.	4r	.
.	.	.	.	8aa\J	.	.	.
.	.	2r	.	8ccc#\L	.	2r	.
.	.	.	.	8aa\	.	.	.
.	.	.	.	8ee\	.	.	.
.	.	.	.	8cc#\J	.	.	.
=259	=259	=259	=259	=259	=259	=259	=259
4r	.	1r	.	1dd	.	4r	.
4E\	.	.	.	.	.	8bb\L	.
.	.	.	.	.	.	8gg#\J	.
4E\	.	.	.	.	.	8bb\L	.
.	.	.	.	.	.	8gg#\	.
4E\	.	.	.	.	.	8bb\	.
.	.	.	.	.	.	8gg#\J	.
=260	=260	=260	=260	=260	=260	=260	=260
4A\	.	4r	.	4cc#\	.	4aa\	.
4r	.	8e\L	.	4r	.	4r	.
.	.	8d#\J	.	.	.	.	.
2r	.	8e\L	.	2r	.	2r	.
.	.	8d#\	.	.	.	.	.
.	.	8e\	.	.	.	.	.
.	.	8d#\J	.	.	.	.	.
=261	=261	=261	=261	=261	=261	=261	=261
(1E	.	[1e	.	4r	.	4r	.
.	.	.	.	8d/L	.	8b/L	.
.	.	.	.	8B/J	.	8g#/J	.
.	.	.	.	8d/L	.	8b/L	.
.	.	.	.	8B/	.	8g#/	.
.	.	.	.	8d/	.	8b/	.
.	.	.	.	8B/J	.	8g#/J	.
=262	=262	=262	=262	=262	=262	=262	=262
4A\)	.	4e\]	.	4c#/	.	4a/	.
4r	.	8E/L	.	4r	.	4r	.
.	.	8D#/J	.	.	.	.	.
2r	.	8E/L	.	2r	.	2r	.
.	.	8D#/	.	.	.	.	.
.	.	8E/	.	.	.	.	.
.	.	8D#/J	.	.	.	.	.
=263	=263	=263	=263	=263	=263	=263	=263
[1EE	.	[1E	.	4r	.	4r	.
.	.	.	.	8d/L	.	8b/L	.
.	.	.	.	8B/J	.	8g#/J	.
.	.	.	.	8d/L	.	8b/L	.
.	.	.	.	8B/	.	8g#/	.
.	.	.	.	8d/	.	8b/	.
.	.	.	.	8B/J	.	8g#/J	.
=264	=264	=264	=264	=264	=264	=264	=264
1EE_	<	1E_	<	8b/L	<	8dd\L	<
.	.	.	.	8g#/	<	8b\	<
.	.	.	.	8b/	.	8dd\	.
.	.	.	.	8g#/J	.	8b\J	.
.	.	.	.	8b/L	.	8dd\L	.
.	.	.	.	8g#/	.	8b\	.
.	.	.	.	8b/	.	8dd\	.
.	.	.	.	8g#/J	.	8b\J	.
=265	=265	=265	=265	=265	=265	=265	=265
1EE]	<	2E/_	<	8b/L	.	8dd\L	.
.	.	.	.	8g#/	.	8b\	.
.	.	.	.	8b/	.	8dd\	.
.	.	.	.	8g#/J	.	8b\J	.
.	.	8E/L]	.	8b/L	.	8dd\L	.
.	.	8e/	.	8g#/	.	8b\	.
.	.	8f#/	.	8b/	.	8dd\	.
.	.	8e/J	.	8g#/J	.	8b\J	.
=266	=266	=266	=266	=266	=266	=266	=266
8AA/	f	[1c#	f	4a/	f	4cc#\	f
8E\L	.	.	.	.	.	.	.
8F#\	.	.	.	4r	.	4r	.
8E\J	.	.	.	.	.	.	.
[2A\	.	.	.	2r	.	8r	.
.	.	.	.	.	.	8ee\L	.
.	.	.	.	.	.	8ff#\	.
.	.	.	.	.	.	8ee\J	.
=267	=267	=267	=267	=267	=267	=267	=267
4A\]	.	2c#\]	.	8r	.	[2aa\	.
.	.	.	.	8e/L	.	.	.
(4E\	.	.	.	8f#/	.	.	.
.	.	.	.	8e/J	.	.	.
4C#/	.	4e\	.	4a/	.	8aa\L]	.
.	.	.	.	.	.	8ccc#\	.
4AA/)	.	4c#\	.	4cc#\	.	8bb\	.
.	.	.	.	.	.	8aa\J	.
=268	=268	=268	=268	=268	=268	=268	=268
(2EE/	.	4.B/	.	4.dd\	.	8aa\L	.
.	.	.	.	.	.	8gg#\	.
.	.	.	.	.	.	8ff#\	.
.	.	8d\	.	8b\	.	8gg#\J	.
2AA/)	.	4.A/	.	4.cc#\	.	8aa\L	.
.	.	.	.	.	.	8ccc#\	.
.	.	.	.	.	.	8bb\	.
.	.	8c#\	.	8a/	.	8aa\J	.
=269	=269	=269	=269	=269	=269	=269	=269
(2EE/	.	4.B/	.	4.dd\	.	8aa\L	.
.	.	.	.	.	.	8gg#\	.
.	.	.	.	.	.	8ff#\	.
.	.	8d\	.	8b\	.	8gg#\J	.
2AA/)	.	4.A/	.	4.cc#\	.	8aa\L	.
.	.	.	.	.	.	8ccc#\	.
.	.	.	.	.	.	8bb\	.
.	.	8c#\	.	8a/	.	8aa\J	.
=270	=270	=270	=270	=270	=270	=270	=270
4EE/	.	4B/	.	4g#/	.	8aa\L	.
.	.	.	.	.	.	8gg#\	.
4E\	.	4B/	.	4g#/	.	8ff#\	.
.	.	.	.	.	.	8ee\J	.
4BB/	.	4B/	.	4a/	.	8dd#\L	.
.	.	.	.	.	.	8ee\	.
4BB/	.	4B/	.	4a/	.	8ff#\	.
.	.	.	.	.	.	8gg#\J	.
=271	=271	=271	=271	=271	=271	=271	=271
[2E\	.	[2B/	.	[2g#/	.	[2ee\	.
8E\]	.	8B/]	.	8g#/]	.	8ee\]	.
8r	.	8r	.	8r	.	8bb\L	p
4r	.	4r	.	4r	.	8aa\	.
.	.	.	.	.	.	8ggn\J	.
=272	=272	=272	=272	=272	=272	=272	=272
2r	.	2r	.	2r	.	8ggn\L	.
.	.	.	.	.	.	8ff#\	.
.	.	.	.	.	.	8ee\	.
.	.	.	.	.	.	8dd\J	.
(2AA/	p	4.e\	p	4.gn/	p	8cc#\L	.
.	.	.	.	.	.	8dd\	.
.	.	.	.	.	.	8ee\	.
.	.	8A/	.	8a/	.	8ff#\J	.
=273	=273	=273	=273	=273	=273	=273	=273
4D\)	.	4d\	.	4f#/	.	8dd\L	.
.	.	.	.	.	.	8ff#\	.
4r	.	4r	.	4r	.	8aa\	.
.	.	.	.	.	.	8aa\J	.
2r	.	2r	.	2r	.	8aa\L	.
.	.	.	.	.	.	8bb\	.
.	.	.	.	.	.	8aa\	.
.	.	.	.	.	.	8ggn\J	.
=274	=274	=274	=274	=274	=274	=274	=274
2r	.	2r	.	2r	.	8ggn\L	.
.	.	.	.	.	.	8ff#\	.
.	.	.	.	.	.	8ee\	.
.	.	.	.	.	.	8dd\J	.
(2AA/	.	4.e\	.	4.gn/	.	8cc#\L	.
.	.	.	.	.	.	8dd\	.
.	.	.	.	.	.	8ee\	.
.	.	8A/	.	8a/	.	8ff#\J	.
=275	=275	=275	=275	=275	=275	=275	=275
4D\)	.	4d\	.	4f#/	.	8dd\L	.
.	.	.	.	.	.	8ff#\	.
4r	.	4r	.	4r	.	8ff#\	.
.	.	.	.	.	.	8ff#\J	.
2r	.	2r	.	2r	.	8ff#\L	.
.	.	.	.	.	.	8ff#\	.
.	.	.	.	.	.	8ee\	.
.	.	.	.	.	.	8dd\J	.
=276	=276	=276	=276	=276	=276	=276	=276
2r	.	2r	.	2r	.	8dd\L	.
.	.	.	.	.	.	8cc#\	.
.	.	.	.	.	.	8b\	.
.	.	.	.	.	.	8a\J	.
(2E\	.	4.B/	.	4.d/	.	8g#/L	.
.	.	.	.	.	.	8a/	.
.	.	.	.	.	.	8b/	.
.	.	8E/	.	8e/	.	8cc#/J	.
=277	=277	=277	=277	=277	=277	=277	=277
4AA/)	.	4A/	.	4c#/	.	8a\L	.
.	.	.	.	.	.	8cc#\	.
4r	.	4r	.	4r	.	8ee\	.
.	.	.	.	.	.	8ee\J	.
2r	.	2r	.	2r	.	8ee\L	.
.	.	.	.	.	.	8ff#\	.
.	.	.	.	.	.	8ee\	.
.	.	.	.	.	.	8dd\J	.
=278	=278	=278	=278	=278	=278	=278	=278
2r	.	2r	.	2r	.	8dd\L	.
.	.	.	.	.	.	8cc#\	.
.	.	.	.	.	.	8b\	.
.	.	.	.	.	.	8a\J	.
(2EE/	.	4.B/	.	4.d/	.	8g#/L	.
.	.	.	.	.	.	8a/	.
.	.	.	.	.	.	8b/	.
.	.	8E/	.	8e/	.	8cc#/J	.
=279	=279	=279	=279	=279	=279	=279	=279
4AA/)	.	4E/	.	8c#/L	.	4a/	.
.	.	.	.	8e/	.	.	.
4r	.	4r	.	8f#/	.	4r	.
.	.	.	.	8e/J	.	.	.
4r	.	8r	.	[2a/	.	8r	.
.	.	8C#/L	.	.	.	8a/L	.
4C#/	.	8E/	.	.	.	8b/	.
.	.	8A/J	.	.	.	8a/J	.
=280	=280	=280	=280	=280	=280	=280	=280
4CC#/	.	4C#/	.	8a/L]	.	[2ee\	.
.	.	.	.	8e/	.	.	.
4r	.	4r	.	8f#/	.	.	.
.	.	.	.	8e/J	.	.	.
4r	.	8r	.	[2a/	.	8ee\L]	.
.	.	8C#/L	.	.	.	8ee\	.
4C#/	.	8E/	.	.	.	8dd\	.
.	.	8A/J	.	.	.	8cc#\J	.
=281	=281	=281	=281	=281	=281	=281	=281
4DD/	.	4D/	.	8a/L]	.	[2b\	.
.	.	.	.	8f#/	.	.	.
4r	.	4r	.	8gn/	.	.	.
.	.	.	.	8f#/J	.	.	.
4r	.	8r	.	[2b\	.	8b\L]	.
.	.	8D/L	.	.	.	8b\	.
4D\	.	8F#/	.	.	.	8cc#\	.
.	.	8B/J	.	.	.	8b\J	.
=282	=282	=282	=282	=282	=282	=282	=282
4EE/	.	4E/	.	8b/L]	.	[2dd\	.
.	.	.	.	8g#/	.	.	.
4r	.	4r	.	8b/	.	.	.
.	.	.	.	8g#/J	.	.	.
4r	.	8r	.	2d/	.	8dd\L]	.
.	.	8E/L	.	.	.	8dd\	.
4E\	.	8B/	.	.	.	8b\	.
.	.	8B/J	.	.	.	8g#\J	.
=283	=283	=283	=283	=283	=283	=283	=283
4AA/	f	8A/L	f	4c#/	f	8a/	f
.	.	8e/	.	.	.	8ee\L	.
4r	.	8c#/	.	4r	.	8ff#\	.
.	.	8A/J	.	.	.	8ee\J	.
8r	.	4E/	.	8r	.	[2aa\	.
8CC#/L	.	.	.	8a/L	.	.	.
8EE/	.	4r	.	8b/	.	.	.
8AA/J	.	.	.	8a/J	.	.	.
=284	=284	=284	=284	=284	=284	=284	=284
4CC#/	.	8r	.	[2ee\	.	8aa\L]	.
.	.	8e\L	.	.	.	8ee\	.
4r	.	8c#\	.	.	.	8ff#\	.
.	.	8A\J	.	.	.	8ee\J	.
8r	.	4E/	.	8ee\L]	.	[2aa\	.
8CC#/L	.	.	.	8ee\	.	.	.
8EE/	.	4r	.	8dd\	.	.	.
8AA/J	.	.	.	8cc#\J	.	.	.
=285	=285	=285	=285	=285	=285	=285	=285
4DD/	.	8r	.	[2b\	.	8aa\L]	.
.	.	8f#\L	.	.	.	8ff#\	.
4r	.	8d\	.	.	.	8ggn\	.
.	.	8B\J	.	.	.	8ff#\J	.
8r	.	4F#/	.	8b\L]	.	[2ddd\	.
8DD/L	.	.	.	8b\	.	.	.
8FF#/	.	4r	.	8cc#\	.	.	.
8BB/J	.	.	.	8b\J	.	.	.
=286	=286	=286	=286	=286	=286	=286	=286
4EE/	.	8r	.	[2dd\	.	8ddd\L]	.
.	.	8G#/L	.	.	.	8ddd\	.
4r	.	8B/	.	.	.	8bb\	.
.	.	8c#/J	.	.	.	8aa\J	.
8r	.	8d/L	.	8dd\L]	.	8gg#\L	.
8EE/L	.	8E/	.	8dd\	.	8ddd\	.
8E/	.	8d/	.	8b\	.	8bb\	.
8E/J	.	8d/J	.	8g#\J	.	8gg#\J	.
=287	=287	=287	=287	=287	=287	=287	=287
4AA/	.	4c#\	.	4a/	.	4aa\	.
4r	.	4r	.	4r	.	4r	.
2r	.	2r	.	2r	.	8r	.
.	.	.	.	.	.	8e/L	p
.	.	.	.	.	.	8f#/	.
.	.	.	.	.	.	8e/J	.
=288	=288	=288	=288	=288	=288	=288	=288
1r	.	1G#	p	[2b\	p	1dd	.
.	.	.	.	8b/L]	.	.	.
.	.	.	.	8e/	.	.	.
.	.	.	.	8f#/	.	.	.
.	.	.	.	8e/J	.	.	.
=289	=289	=289	=289	=289	=289	=289	=289
1r	.	1A	.	[2a/	.	1cc#	.
.	.	.	.	8a/L]	.	.	.
.	.	.	.	8e/	.	.	.
.	.	.	.	8f#/	.	.	.
.	.	.	.	8e/J	.	.	.
=290	=290	=290	=290	=290	=290	=290	=290
(1E	p	1d	.	8g#/L	.	1b	.
.	.	.	.	8e/	.	.	.
.	.	.	.	8f#/	.	.	.
.	.	.	.	8e/J	.	.	.
.	.	.	.	8g#/L	.	.	.
.	.	.	.	8e/	.	.	.
.	.	.	.	8f#/	.	.	.
.	.	.	.	8e/J	.	.	.
=291	=291	=291	=291	=291	=291	=291	=291
4A\)	.	4c#\	.	4a/	.	4a/	.
4r	.	4r	.	4r	.	4r	.
2r	.	2r	.	2r	.	8r	.
.	.	.	.	.	.	8ee\L	p
.	.	.	.	.	.	8ff#\	.
.	.	.	.	.	.	8ee\J	.
=292	=292	=292	=292	=292	=292	=292	=292
(1G#	p	[1e	p	1dd	p	[2bb\	.
.	.	.	.	.	.	8bb\L]	.
.	.	.	.	.	.	8ee\	.
.	.	.	.	.	.	8ff#\	.
.	.	.	.	.	.	8ee\J	.
=293	=293	=293	=293	=293	=293	=293	=293
1A	.	1e]	.	1cc#	.	[2aa\	.
.	.	.	.	.	.	8aa\L]	.
.	.	.	.	.	.	8ee\	.
.	.	.	.	.	.	8ff#\	.
.	.	.	.	.	.	8ee\J	.
=294	=294	=294	=294	=294	=294	=294	=294
1E)	.	1d	.	1b	.	8gg#\L	.
.	.	.	.	.	.	8ee\	.
.	.	.	.	.	.	8ff#\	.
.	.	.	.	.	.	8ee\J	.
.	.	.	.	.	.	8gg#\L	.
.	.	.	.	.	.	8ee\	.
.	.	.	.	.	.	8ff#\	.
.	.	.	.	.	.	8ee\J	.
=295	=295	=295	=295	=295	=295	=295	=295
4A\	.	4c#\	.	4a/	.	[2aa\	.
4r	.	4r	.	4r	.	.	.
2r	.	2r	.	2r	.	8aa\L]	.
.	.	.	.	.	.	(8ee\	.
.	.	.	.	.	.	&(8ff#\&))	.
.	.	.	.	.	.	8ee\J	.
=296	=296	=296	=296	=296	=296	=296	=296
1r	.	1r	.	1r	.	[2ccc#\	<
.	.	.	.	.	.	8ccc#\L]	<
.	.	.	.	.	.	8aa\	.
.	.	.	.	.	.	8bb\	.
.	.	.	.	.	.	8aa\J	.
=297	=297	=297	=297	=297	=297	=297	=297
4AA/	<	[1c#	<	[1ee	<	[2eee\	.
4A\	<	.	.	.	.	.	.
4E\	.	.	.	.	.	8eee\L]	.
.	.	.	.	.	.	8ccc#\	.
4C#/	.	.	.	.	.	8ddd\	.
.	.	.	.	.	.	8ccc#\J	.
=298	=298	=298	=298	=298	=298	=298	=298
4AA/	.	1c#]	<	1ee]	<	8eee\L	.
.	.	.	.	.	.	8ccc#\	.
4EE/	.	.	.	.	.	8ddd\	.
.	.	.	.	.	.	8ccc#\J	.
4AA/	.	.	.	.	.	8eee\L	.
.	.	.	.	.	.	8ccc#\	.
4EE/	.	.	.	.	.	8ddd\	.
.	.	.	.	.	.	8ccc#\J	.
=299	=299	=299	=299	=299	=299	=299	=299
4AA/	f	[1c#	f	[1ee	f	[1eee	f
4r	.	.	.	.	.	.	.
8r	.	.	.	.	.	.	.
(8E\L	.	.	.	.	.	.	.
8F#\	.	.	.	.	.	.	.
8E\J)	.	.	.	.	.	.	.
=300	=300	=300	=300	=300	=300	=300	=300
4A\	.	1c#]	.	1ee]	.	1eee]	.
4r	.	.	.	.	.	.	.
8r	.	.	.	.	.	.	.
(8EE/L	.	.	.	.	.	.	.
8FF#/	.	.	.	.	.	.	.
8EE/J)	.	.	.	.	.	.	.
=301	=301	=301	=301	=301	=301	=301	=301
[1AA	p	[1A	p	[1e [1cc#	p	[1ccc#	p
=302	=302	=302	=302	=302	=302	=302	=302
2AA/_	.	2A/_	.	2e/_ 2cc#/_	.	2ccc#\_	.
8AA/]	.	8A/]	.	8e/] 8cc#/]	.	8ccc#\]	.
==	==	==	==	==	==	==	==
*-	*-	*-	*-	*-	*-	*-	*-
!!!ENC: Craig Stuart Sapp
!!!END: 2005/12/08/
